assets/luts/Basic_Contrasty.cube
# GSG LUTs 1.0
# Copyright (c) 2016-2020 Greyscalegorilla
# See EULA for licensing and distribution information
# Converted by Briz LUT Converter
LUT_3D_SIZE 8
DOMAIN_MIN 0.000000 0.000000 0.000000
DOMAIN_MAX 0.903226 0.903226 0.903226
0.000000 0.000000 0.000000
0.088542 0.000000 0.000000
0.198960 0.000000 0.000000
0.330860 0.000000 0.000000
0.481019 0.000000 0.000000
0.639308 0.000000 0.000000
0.791335 0.000000 0.000000
0.921927 0.000000 0.000000
0.000000 0.088542 0.000000
0.088542 0.088542 0.000000
0.198960 0.088542 0.000000
0.330860 0.088542 0.000000
0.481019 0.088542 0.000000
0.639308 0.088542 0.000000
0.791335 0.088542 0.000000
0.921927 0.088542 0.000000
0.000000 0.198960 0.000000
0.088542 0.198960 0.000000
0.198960 0.198960 0.000000
0.330860 0.198960 0.000000
0.481019 0.198960 0.000000
0.639308 0.198960 0.000000
0.791335 0.198960 0.000000
0.921927 0.198960 0.000000
0.000000 0.330860 0.000000
0.088542 0.330860 0.000000
0.198960 0.330860 0.000000
0.330860 0.330860 0.000000
0.481019 0.330860 0.000000
0.639308 0.330860 0.000000
0.791335 0.330860 0.000000
0.921927 0.330860 0.000000
0.000000 0.481019 0.000000
0.088542 0.481019 0.000000
0.198960 0.481019 0.000000
0.330860 0.481019 0.000000
0.481019 0.481019 0.000000
0.639308 0.481019 0.000000
0.791335 0.481019 0.000000
0.921927 0.481019 0.000000
0.000000 0.639308 0.000000
0.088542 0.639308 0.000000
0.198960 0.639308 0.000000
0.330860 0.639308 0.000000
0.481019 0.639308 0.000000
0.639308 0.639308 0.000000
0.791335 0.639308 0.000000
0.921927 0.639308 0.000000
0.000000 0.791335 0.000000
0.088542 0.791335 0.000000
0.198960 0.791335 0.000000
0.330860 0.791335 0.000000
0.481019 0.791335 0.000000
0.639308 0.791335 0.000000
0.791335 0.791335 0.000000
0.921927 0.791335 0.000000
0.000000 0.921927 0.000000
0.088542 0.921927 0.000000
0.198960 0.921927 0.000000
0.330860 0.921927 0.000000
0.481019 0.921927 0.000000
0.639308 0.921927 0.000000
0.791335 0.921927 0.000000
0.921927 0.921927 0.000000
0.000000 0.000000 0.088542
0.088542 0.000000 0.088542
0.198960 0.000000 0.088542
0.330860 0.000000 0.088542
0.481019 0.000000 0.088542
0.639308 0.000000 0.088542
0.791335 0.000000 0.088542
0.921927 0.000000 0.088542
0.000000 0.088542 0.088542
0.088542 0.088542 0.088542
0.198960 0.088542 0.088542
0.330860 0.088542 0.088542
0.481019 0.088542 0.088542
0.639308 0.088542 0.088542
0.791335 0.088542 0.088542
0.921927 0.088542 0.088542
0.000000 0.198960 0.088542
0.088542 0.198960 0.088542
0.198960 0.198960 0.088542
0.330860 0.198960 0.088542
0.481019 0.198960 0.088542
0.639308 0.198960 0.088542
0.791335 0.198960 0.088542
0.921927 0.198960 0.088542
0.000000 0.330860 0.088542
0.088542 0.330860 0.088542
0.198960 0.330860 0.088542
0.330860 0.330860 0.088542
0.481019 0.330860 0.088542
0.639308 0.330860 0.088542
0.791335 0.330860 0.088542
0.921927 0.330860 0.088542
0.000000 0.481019 0.088542
0.088542 0.481019 0.088542
0.198960 0.481019 0.088542
0.330860 0.481019 0.088542
0.481019 0.481019 0.088542
0.639308 0.481019 0.088542
0.791335 0.481019 0.088542
0.921927 0.481019 0.088542
0.000000 0.639308 0.088542
0.088542 0.639308 0.088542
0.198960 0.639308 0.088542
0.330860 0.639308 0.088542
0.481019 0.639308 0.088542
0.639308 0.639308 0.088542
0.791335 0.639308 0.088542
0.921927 0.639308 0.088542
0.000000 0.791335 0.088542
0.088542 0.791335 0.088542
0.198960 0.791335 0.088542
0.330860 0.791335 0.088542
0.481019 0.791335 0.088542
0.639308 0.791335 0.088542
0.791335 0.791335 0.088542
0.921927 0.791335 0.088542
0.000000 0.921927 0.088542
0.088542 0.921927 0.088542
0.198960 0.921927 0.088542
0.330860 0.921927 0.088542
0.481019 0.921927 0.088542
0.639308 0.921927 0.088542
0.791335 0.921927 0.088542
0.921927 0.921927 0.088542
0.000000 0.000000 0.198960
0.088542 0.000000 0.198960
0.198960 0.000000 0.198960
0.330860 0.000000 0.198960
0.481019 0.000000 0.198960
0.639308 0.000000 0.198960
0.791335 0.000000 0.198960
0.921927 0.000000 0.198960
0.000000 0.088542 0.198960
0.088542 0.088542 0.198960
0.198960 0.088542 0.198960
0.330860 0.088542 0.198960
0.481019 0.088542 0.198960
0.639308 0.088542 0.198960
0.791335 0.088542 0.198960
0.921927 0.088542 0.198960
0.000000 0.198960 0.198960
0.088542 0.198960 0.198960
0.198960 0.198960 0.198960
0.330860 0.198960 0.198960
0.481019 0.198960 0.198960
0.639308 0.198960 0.198960
0.791335 0.198960 0.198960
0.921927 0.198960 0.198960
0.000000 0.330860 0.198960
0.088542 0.330860 0.198960
0.198960 0.330860 0.198960
0.330860 0.330860 0.198960
0.481019 0.330860 0.198960
0.639308 0.330860 0.198960
0.791335 0.330860 0.198960
0.921927 0.330860 0.198960
0.000000 0.481019 0.198960
0.088542 0.481019 0.198960
0.198960 0.481019 0.198960
0.330860 0.481019 0.198960
0.481019 0.481019 0.198960
0.639308 0.481019 0.198960
0.791335 0.481019 0.198960
0.921927 0.481019 0.198960
0.000000 0.639308 0.198960
0.088542 0.639308 0.198960
0.198960 0.639308 0.198960
0.330860 0.639308 0.198960
0.481019 0.639308 0.198960
0.639308 0.639308 0.198960
0.791335 0.639308 0.198960
0.921927 0.639308 0.198960
0.000000 0.791335 0.198960
0.088542 0.791335 0.198960
0.198960 0.791335 0.198960
0.330860 0.791335 0.198960
0.481019 0.791335 0.198960
0.639308 0.791335 0.198960
0.791335 0.791335 0.198960
0.921927 0.791335 0.198960
0.000000 0.921927 0.198960
0.088542 0.921927 0.198960
0.198960 0.921927 0.198960
0.330860 0.921927 0.198960
0.481019 0.921927 0.198960
0.639308 0.921927 0.198960
0.791335 0.921927 0.198960
0.921927 0.921927 0.198960
0.000000 0.000000 0.330860
0.088542 0.000000 0.330860
0.198960 0.000000 0.330860
0.330860 0.000000 0.330860
0.481019 0.000000 0.330860
0.639308 0.000000 0.330860
0.791335 0.000000 0.330860
0.921927 0.000000 0.330860
0.000000 0.088542 0.330860
0.088542 0.088542 0.330860
0.198960 0.088542 0.330860
0.330860 0.088542 0.330860
0.481019 0.088542 0.330860
0.639308 0.088542 0.330860
0.791335 0.088542 0.330860
0.921927 0.088542 0.330860
0.000000 0.198960 0.330860
0.088542 0.198960 0.330860
0.198960 0.198960 0.330860
0.330860 0.198960 0.330860
0.481019 0.198960 0.330860
0.639308 0.198960 0.330860
0.791335 0.198960 0.330860
0.921927 0.198960 0.330860
0.000000 0.330860 0.330860
0.088542 0.330860 0.330860
0.198960 0.330860 0.330860
0.330860 0.330860 0.330860
0.481019 0.330860 0.330860
0.639308 0.330860 0.330860
0.791335 0.330860 0.330860
0.921927 0.330860 0.330860
0.000000 0.481019 0.330860
0.088542 0.481019 0.330860
0.198960 0.481019 0.330860
0.330860 0.481019 0.330860
0.481019 0.481019 0.330860
0.639308 0.481019 0.330860
0.791335 0.481019 0.330860
0.921927 0.481019 0.330860
0.000000 0.639308 0.330860
0.088542 0.639308 0.330860
0.198960 0.639308 0.330860
0.330860 0.639308 0.330860
0.481019 0.639308 0.330860
0.639308 0.639308 0.330860
0.791335 0.639308 0.330860
0.921927 0.639308 0.330860
0.000000 0.791335 0.330860
0.088542 0.791335 0.330860
0.198960 0.791335 0.330860
0.330860 0.791335 0.330860
0.481019 0.791335 0.330860
0.639308 0.791335 0.330860
0.791335 0.791335 0.330860
0.921927 0.791335 0.330860
0.000000 0.921927 0.330860
0.088542 0.921927 0.330860
0.198960 0.921927 0.330860
0.330860 0.921927 0.330860
0.481019 0.921927 0.330860
0.639308 0.921927 0.330860
0.791335 0.921927 0.330860
0.921927 0.921927 0.330860
0.000000 0.000000 0.481019
0.088542 0.000000 0.481019
0.198960 0.000000 0.481019
0.330860 0.000000 0.481019
0.481019 0.000000 0.481019
0.639308 0.000000 0.481019
0.791335 0.000000 0.481019
0.921927 0.000000 0.481019
0.000000 0.088542 0.481019
0.088542 0.088542 0.481019
0.198960 0.088542 0.481019
0.330860 0.088542 0.481019
0.481019 0.088542 0.481019
0.639308 0.088542 0.481019
0.791335 0.088542 0.481019
0.921927 0.088542 0.481019
0.000000 0.198960 0.481019
0.088542 0.198960 0.481019
0.198960 0.198960 0.481019
0.330860 0.198960 0.481019
0.481019 0.198960 0.481019
0.639308 0.198960 0.481019
0.791335 0.198960 0.481019
0.921927 0.198960 0.481019
0.000000 0.330860 0.481019
0.088542 0.330860 0.481019
0.198960 0.330860 0.481019
0.330860 0.330860 0.481019
0.481019 0.330860 0.481019
0.639308 0.330860 0.481019
0.791335 0.330860 0.481019
0.921927 0.330860 0.481019
0.000000 0.481019 0.481019
0.088542 0.481019 0.481019
0.198960 0.481019 0.481019
0.330860 0.481019 0.481019
0.481019 0.481019 0.481019
0.639308 0.481019 0.481019
0.791335 0.481019 0.481019
0.921927 0.481019 0.481019
0.000000 0.639308 0.481019
0.088542 0.639308 0.481019
0.198960 0.639308 0.481019
0.330860 0.639308 0.481019
0.481019 0.639308 0.481019
0.639308 0.639308 0.481019
0.791335 0.639308 0.481019
0.921927 0.639308 0.481019
0.000000 0.791335 0.481019
0.088542 0.791335 0.481019
0.198960 0.791335 0.481019
0.330860 0.791335 0.481019
0.481019 0.791335 0.481019
0.639308 0.791335 0.481019
0.791335 0.791335 0.481019
0.921927 0.791335 0.481019
0.000000 0.921927 0.481019
0.088542 0.921927 0.481019
0.198960 0.921927 0.481019
0.330860 0.921927 0.481019
0.481019 0.921927 0.481019
0.639308 0.921927 0.481019
0.791335 0.921927 0.481019
0.921927 0.921927 0.481019
0.000000 0.000000 0.639308
0.088542 0.000000 0.639308
0.198960 0.000000 0.639308
0.330860 0.000000 0.639308
0.481019 0.000000 0.639308
0.639308 0.000000 0.639308
0.791335 0.000000 0.639308
0.921927 0.000000 0.639308
0.000000 0.088542 0.639308
0.088542 0.088542 0.639308
0.198960 0.088542 0.639308
0.330860 0.088542 0.639308
0.481019 0.088542 0.639308
0.639308 0.088542 0.639308
0.791335 0.088542 0.639308
0.921927 0.088542 0.639308
0.000000 0.198960 0.639308
0.088542 0.198960 0.639308
0.198960 0.198960 0.639308
0.330860 0.198960 0.639308
0.481019 0.198960 0.639308
0.639308 0.198960 0.639308
0.791335 0.198960 0.639308
0.921927 0.198960 0.639308
0.000000 0.330860 0.639308
0.088542 0.330860 0.639308
0.198960 0.330860 0.639308
0.330860 0.330860 0.639308
0.481019 0.330860 0.639308
0.639308 0.330860 0.639308
0.791335 0.330860 0.639308
0.921927 0.330860 0.639308
0.000000 0.481019 0.639308
0.088542 0.481019 0.639308
0.198960 0.481019 0.639308
0.330860 0.481019 0.639308
0.481019 0.481019 0.639308
0.639308 0.481019 0.639308
0.791335 0.481019 0.639308
0.921927 0.481019 0.639308
0.000000 0.639308 0.639308
0.088542 0.639308 0.639308
0.198960 0.639308 0.639308
0.330860 0.639308 0.639308
0.481019 0.639308 0.639308
0.639308 0.639308 0.639308
0.791335 0.639308 0.639308
0.921927 0.639308 0.639308
0.000000 0.791335 0.639308
0.088542 0.791335 0.639308
0.198960 0.791335 0.639308
0.330860 0.791335 0.639308
0.481019 0.791335 0.639308
0.639308 0.791335 0.639308
0.791335 0.791335 0.639308
0.921927 0.791335 0.639308
0.000000 0.921927 0.639308
0.088542 0.921927 0.639308
0.198960 0.921927 0.639308
0.330860 0.921927 0.639308
0.481019 0.921927 0.639308
0.639308 0.921927 0.639308
0.791335 0.921927 0.639308
0.921927 0.921927 0.639308
0.000000 0.000000 0.791335
0.088542 0.000000 0.791335
0.198960 0.000000 0.791335
0.330860 0.000000 0.791335
0.481019 0.000000 0.791335
0.639308 0.000000 0.791335
0.791335 0.000000 0.791335
0.921927 0.000000 0.791335
0.000000 0.088542 0.791335
0.088542 0.088542 0.791335
0.198960 0.088542 0.791335
0.330860 0.088542 0.791335
0.481019 0.088542 0.791335
0.639308 0.088542 0.791335
0.791335 0.088542 0.791335
0.921927 0.088542 0.791335
0.000000 0.198960 0.791335
0.088542 0.198960 0.791335
0.198960 0.198960 0.791335
0.330860 0.198960 0.791335
0.481019 0.198960 0.791335
0.639308 0.198960 0.791335
0.791335 0.198960 0.791335
0.921927 0.198960 0.791335
0.000000 0.330860 0.791335
0.088542 0.330860 0.791335
0.198960 0.330860 0.791335
0.330860 0.330860 0.791335
0.481019 0.330860 0.791335
0.639308 0.330860 0.791335
0.791335 0.330860 0.791335
0.921927 0.330860 0.791335
0.000000 0.481019 0.791335
0.088542 0.481019 0.791335
0.198960 0.481019 0.791335
0.330860 0.481019 0.791335
0.481019 0.481019 0.791335
0.639308 0.481019 0.791335
0.791335 0.481019 0.791335
0.921927 0.481019 0.791335
0.000000 0.639308 0.791335
0.088542 0.639308 0.791335
0.198960 0.639308 0.791335
0.330860 0.639308 0.791335
0.481019 0.639308 0.791335
0.639308 0.639308 0.791335
0.791335 0.639308 0.791335
0.921927 0.639308 0.791335
0.000000 0.791335 0.791335
0.088542 0.791335 0.791335
0.198960 0.791335 0.791335
0.330860 0.791335 0.791335
0.481019 0.791335 0.791335
0.639308 0.791335 0.791335
0.791335 0.791335 0.791335
0.921927 0.791335 0.791335
0.000000 0.921927 0.791335
0.088542 0.921927 0.791335
0.198960 0.921927 0.791335
0.330860 0.921927 0.791335
0.481019 0.921927 0.791335
0.639308 0.921927 0.791335
0.791335 0.921927 0.791335
0.921927 0.921927 0.791335
0.000000 0.000000 0.921927
0.088542 0.000000 0.921927
0.198960 0.000000 0.921927
0.330860 0.000000 0.921927
0.481019 0.000000 0.921927
0.639308 0.000000 0.921927
0.791335 0.000000 0.921927
0.921927 0.000000 0.921927
0.000000 0.088542 0.921927
0.088542 0.088542 0.921927
0.198960 0.088542 0.921927
0.330860 0.088542 0.921927
0.481019 0.088542 0.921927
0.639308 0.088542 0.921927
0.791335 0.088542 0.921927
0.921927 0.088542 0.921927
0.000000 0.198960 0.921927
0.088542 0.198960 0.921927
0.198960 0.198960 0.921927
0.330860 0.198960 0.921927
0.481019 0.198960 0.921927
0.639308 0.198960 0.921927
0.791335 0.198960 0.921927
0.921927 0.198960 0.921927
0.000000 0.330860 0.921927
0.088542 0.330860 0.921927
0.198960 0.330860 0.921927
0.330860 0.330860 0.921927
0.481019 0.330860 0.921927
0.639308 0.330860 0.921927
0.791335 0.330860 0.921927
0.921927 0.330860 0.921927
0.000000 0.481019 0.921927
0.088542 0.481019 0.921927
0.198960 0.481019 0.921927
0.330860 0.481019 0.921927
0.481019 0.481019 0.921927
0.639308 0.481019 0.921927
0.791335 0.481019 0.921927
0.921927 0.481019 0.921927
0.000000 0.639308 0.921927
0.088542 0.639308 0.921927
0.198960 0.639308 0.921927
0.330860 0.639308 0.921927
0.481019 0.639308 0.921927
0.639308 0.639308 0.921927
0.791335 0.639308 0.921927
0.921927 0.639308 0.921927
0.000000 0.791335 0.921927
0.088542 0.791335 0.921927
0.198960 0.791335 0.921927
0.330860 0.791335 0.921927
0.481019 0.791335 0.921927
0.639308 0.791335 0.921927
0.791335 0.791335 0.921927
0.921927 0.791335 0.921927
0.000000 0.921927 0.921927
0.088542 0.921927 0.921927
0.198960 0.921927 0.921927
0.330860 0.921927 0.921927
0.481019 0.921927 0.921927
0.639308 0.921927 0.921927
0.791335 0.921927 0.921927
0.921927 0.921927 0.921927
