assets/luts/Basic_Contrasty.cube
# GSG LUTs 1.0
# Copyright (c) 2016-2020 Greyscalegorilla
# See EULA for licensing and distribution information
# Converted by Briz LUT Converter
LUT_3D_SIZE 5
DOMAIN_MIN 0.000000 0.000000 0.000000
DOMAIN_MAX 0.903226 0.903226 0.903226
0.000000 0.000000 0.000000
0.169254 0.000000 0.000000
0.404230 0.000000 0.000000
0.678514 0.000000 0.000000
0.921927 0.000000 0.000000
0.000000 0.169254 0.000000
0.169254 0.169254 0.000000
0.404230 0.169254 0.000000
0.678514 0.169254 0.000000
0.921927 0.169254 0.000000
0.000000 0.404230 0.000000
0.169254 0.404230 0.000000
0.404230 0.404230 0.000000
0.678514 0.404230 0.000000
0.921927 0.404230 0.000000
0.000000 0.678514 0.000000
0.169254 0.678514 0.000000
0.404230 0.678514 0.000000
0.678514 0.678514 0.000000
0.921927 0.678514 0.000000
0.000000 0.921927 0.000000
0.169254 0.921927 0.000000
0.404230 0.921927 0.000000
0.678514 0.921927 0.000000
0.921927 0.921927 0.000000
0.000000 0.000000 0.169254
0.169254 0.000000 0.169254
0.404230 0.000000 0.169254
0.678514 0.000000 0.169254
0.921927 0.000000 0.169254
0.000000 0.169254 0.169254
0.169254 0.169254 0.169254
0.404230 0.169254 0.169254
0.678514 0.169254 0.169254
0.921927 0.169254 0.169254
0.000000 0.404230 0.169254
0.169254 0.404230 0.169254
0.404230 0.404230 0.169254
0.678514 0.404230 0.169254
0.921927 0.404230 0.169254
0.000000 0.678514 0.169254
0.169254 0.678514 0.169254
0.404230 0.678514 0.169254
0.678514 0.678514 0.169254
0.921927 0.678514 0.169254
0.000000 0.921927 0.169254
0.169254 0.921927 0.169254
0.404230 0.921927 0.169254
0.678514 0.921927 0.169254
0.921927 0.921927 0.169254
0.000000 0.000000 0.404230
0.169254 0.000000 0.404230
0.404230 0.000000 0.404230
0.678514 0.000000 0.404230
0.921927 0.000000 0.404230
0.000000 0.169254 0.404230
0.169254 0.169254 0.404230
0.404230 0.169254 0.404230
0.678514 0.169254 0.404230
0.921927 0.169254 0.404230
0.000000 0.404230 0.404230
0.169254 0.404230 0.404230
0.404230 0.404230 0.404230
0.678514 0.404230 0.404230
0.921927 0.404230 0.404230
0.000000 0.678514 0.404230
0.169254 0.678514 0.404230
0.404230 0.678514 0.404230
0.678514 0.678514 0.404230
0.921927 0.678514 0.404230
0.000000 0.921927 0.404230
0.169254 0.921927 0.404230
0.404230 0.921927 0.404230
0.678514 0.921927 0.404230
0.921927 0.921927 0.404230
0.000000 0.000000 0.678514
0.169254 0.000000 0.678514
0.404230 0.000000 0.678514
0.678514 0.000000 0.678514
0.921927 0.000000 0.678514
0.000000 0.169254 0.678514
0.169254 0.169254 0.678514
0.404230 0.169254 0.678514
0.678514 0.169254 0.678514
0.921927 0.169254 0.678514
0.000000 0.404230 0.678514
0.169254 0.404230 0.678514
0.404230 0.404230 0.678514
0.678514 0.404230 0.678514
0.921927 0.404230 0.678514
0.000000 0.678514 0.678514
0.169254 0.678514 0.678514
0.404230 0.678514 0.678514
0.678514 0.678514 0.678514
0.921927 0.678514 0.678514
0.000000 0.921927 0.678514
0.169254 0.921927 0.678514
0.404230 0.921927 0.678514
0.678514 0.921927 0.678514
0.921927 0.921927 0.678514
0.000000 0.000000 0.921927
0.169254 0.000000 0.921927
0.404230 0.000000 0.921927
0.678514 0.000000 0.921927
0.921927 0.000000 0.921927
0.000000 0.169254 0.921927
0.169254 0.169254 0.921927
0.404230 0.169254 0.921927
0.678514 0.169254 0.921927
0.921927 0.169254 0.921927
0.000000 0.404230 0.921927
0.169254 0.404230 0.921927
0.404230 0.404230 0.921927
0.678514 0.404230 0.921927
0.921927 0.404230 0.921927
0.000000 0.678514 0.921927
0.169254 0.678514 0.921927
0.404230 0.678514 0.921927
0.678514 0.678514 0.921927
0.921927 0.678514 0.921927
0.000000 0.921927 0.921927
0.169254 0.921927 0.921927
0.404230 0.921927 0.921927
0.678514 0.921927 0.921927
0.921927 0.921927 0.921927
