assets/luts/Basic_Contrasty.cube
# GSG LUTs 1.0
# Copyright (c) 2016-2020 Greyscalegorilla
# See EULA for licensing and distribution information
# Converted by Briz LUT Converter
LUT_3D_SIZE 32
0.000000 0.000000 0.000000
0.020119 0.000000 0.000000
0.041735 0.000000 0.000000
0.064382 0.000000 0.000000
0.088542 0.000000 0.000000
0.113971 0.000000 0.000000
0.140864 0.000000 0.000000
0.169254 0.000000 0.000000
0.198960 0.000000 0.000000
0.229934 0.000000 0.000000
0.262342 0.000000 0.000000
0.296089 0.000000 0.000000
0.330860 0.000000 0.000000
0.367041 0.000000 0.000000
0.404230 0.000000 0.000000
0.442184 0.000000 0.000000
0.481019 0.000000 0.000000
0.520225 0.000000 0.000000
0.559817 0.000000 0.000000
0.599764 0.000000 0.000000
0.639308 0.000000 0.000000
0.678514 0.000000 0.000000
0.717129 0.000000 0.000000
0.754736 0.000000 0.000000
0.791335 0.000000 0.000000
0.826484 0.000000 0.000000
0.860121 0.000000 0.000000
0.892032 0.000000 0.000000
0.921927 0.000000 0.000000
0.950049 0.000000 0.000000
0.976147 0.000000 0.000000
1.000000 0.000000 0.000000
0.000000 0.020119 0.000000
0.020119 0.020119 0.000000
0.041735 0.020119 0.000000
0.064382 0.020119 0.000000
0.088542 0.020119 0.000000
0.113971 0.020119 0.000000
0.140864 0.020119 0.000000
0.169254 0.020119 0.000000
0.198960 0.020119 0.000000
0.229934 0.020119 0.000000
0.262342 0.020119 0.000000
0.296089 0.020119 0.000000
0.330860 0.020119 0.000000
0.367041 0.020119 0.000000
0.404230 0.020119 0.000000
0.442184 0.020119 0.000000
0.481019 0.020119 0.000000
0.520225 0.020119 0.000000
0.559817 0.020119 0.000000
0.599764 0.020119 0.000000
0.639308 0.020119 0.000000
0.678514 0.020119 0.000000
0.717129 0.020119 0.000000
0.754736 0.020119 0.000000
0.791335 0.020119 0.000000
0.826484 0.020119 0.000000
0.860121 0.020119 0.000000
0.892032 0.020119 0.000000
0.921927 0.020119 0.000000
0.950049 0.020119 0.000000
0.976147 0.020119 0.000000
1.000000 0.020119 0.000000
0.000000 0.041735 0.000000
0.020119 0.041735 0.000000
0.041735 0.041735 0.000000
0.064382 0.041735 0.000000
0.088542 0.041735 0.000000
0.113971 0.041735 0.000000
0.140864 0.041735 0.000000
0.169254 0.041735 0.000000
0.198960 0.041735 0.000000
0.229934 0.041735 0.000000
0.262342 0.041735 0.000000
0.296089 0.041735 0.000000
0.330860 0.041735 0.000000
0.367041 0.041735 0.000000
0.404230 0.041735 0.000000
0.442184 0.041735 0.000000
0.481019 0.041735 0.000000
0.520225 0.041735 0.000000
0.559817 0.041735 0.000000
0.599764 0.041735 0.000000
0.639308 0.041735 0.000000
0.678514 0.041735 0.000000
0.717129 0.041735 0.000000
0.754736 0.041735 0.000000
0.791335 0.041735 0.000000
0.826484 0.041735 0.000000
0.860121 0.041735 0.000000
0.892032 0.041735 0.000000
0.921927 0.041735 0.000000
0.950049 0.041735 0.000000
0.976147 0.041735 0.000000
1.000000 0.041735 0.000000
0.000000 0.064382 0.000000
0.020119 0.064382 0.000000
0.041735 0.064382 0.000000
0.064382 0.064382 0.000000
0.088542 0.064382 0.000000
0.113971 0.064382 0.000000
0.140864 0.064382 0.000000
0.169254 0.064382 0.000000
0.198960 0.064382 0.000000
0.229934 0.064382 0.000000
0.262342 0.064382 0.000000
0.296089 0.064382 0.000000
0.330860 0.064382 0.000000
0.367041 0.064382 0.000000
0.404230 0.064382 0.000000
0.442184 0.064382 0.000000
0.481019 0.064382 0.000000
0.520225 0.064382 0.000000
0.559817 0.064382 0.000000
0.599764 0.064382 0.000000
0.639308 0.064382 0.000000
0.678514 0.064382 0.000000
0.717129 0.064382 0.000000
0.754736 0.064382 0.000000
0.791335 0.064382 0.000000
0.826484 0.064382 0.000000
0.860121 0.064382 0.000000
0.892032 0.064382 0.000000
0.921927 0.064382 0.000000
0.950049 0.064382 0.000000
0.976147 0.064382 0.000000
1.000000 0.064382 0.000000
0.000000 0.088542 0.000000
0.020119 0.088542 0.000000
0.041735 0.088542 0.000000
0.064382 0.088542 0.000000
0.088542 0.088542 0.000000
0.113971 0.088542 0.000000
0.140864 0.088542 0.000000
0.169254 0.088542 0.000000
0.198960 0.088542 0.000000
0.229934 0.088542 0.000000
0.262342 0.088542 0.000000
0.296089 0.088542 0.000000
0.330860 0.088542 0.000000
0.367041 0.088542 0.000000
0.404230 0.088542 0.000000
0.442184 0.088542 0.000000
0.481019 0.088542 0.000000
0.520225 0.088542 0.000000
0.559817 0.088542 0.000000
0.599764 0.088542 0.000000
0.639308 0.088542 0.000000
0.678514 0.088542 0.000000
0.717129 0.088542 0.000000
0.754736 0.088542 0.000000
0.791335 0.088542 0.000000
0.826484 0.088542 0.000000
0.860121 0.088542 0.000000
0.892032 0.088542 0.000000
0.921927 0.088542 0.000000
0.950049 0.088542 0.000000
0.976147 0.088542 0.000000
1.000000 0.088542 0.000000
0.000000 0.113971 0.000000
0.020119 0.113971 0.000000
0.041735 0.113971 0.000000
0.064382 0.113971 0.000000
0.088542 0.113971 0.000000
0.113971 0.113971 0.000000
0.140864 0.113971 0.000000
0.169254 0.113971 0.000000
0.198960 0.113971 0.000000
0.229934 0.113971 0.000000
0.262342 0.113971 0.000000
0.296089 0.113971 0.000000
0.330860 0.113971 0.000000
0.367041 0.113971 0.000000
0.404230 0.113971 0.000000
0.442184 0.113971 0.000000
0.481019 0.113971 0.000000
0.520225 0.113971 0.000000
0.559817 0.113971 0.000000
0.599764 0.113971 0.000000
0.639308 0.113971 0.000000
0.678514 0.113971 0.000000
0.717129 0.113971 0.000000
0.754736 0.113971 0.000000
0.791335 0.113971 0.000000
0.826484 0.113971 0.000000
0.860121 0.113971 0.000000
0.892032 0.113971 0.000000
0.921927 0.113971 0.000000
0.950049 0.113971 0.000000
0.976147 0.113971 0.000000
1.000000 0.113971 0.000000
0.000000 0.140864 0.000000
0.020119 0.140864 0.000000
0.041735 0.140864 0.000000
0.064382 0.140864 0.000000
0.088542 0.140864 0.000000
0.113971 0.140864 0.000000
0.140864 0.140864 0.000000
0.169254 0.140864 0.000000
0.198960 0.140864 0.000000
0.229934 0.140864 0.000000
0.262342 0.140864 0.000000
0.296089 0.140864 0.000000
0.330860 0.140864 0.000000
0.367041 0.140864 0.000000
0.404230 0.140864 0.000000
0.442184 0.140864 0.000000
0.481019 0.140864 0.000000
0.520225 0.140864 0.000000
0.559817 0.140864 0.000000
0.599764 0.140864 0.000000
0.639308 0.140864 0.000000
0.678514 0.140864 0.000000
0.717129 0.140864 0.000000
0.754736 0.140864 0.000000
0.791335 0.140864 0.000000
0.826484 0.140864 0.000000
0.860121 0.140864 0.000000
0.892032 0.140864 0.000000
0.921927 0.140864 0.000000
0.950049 0.140864 0.000000
0.976147 0.140864 0.000000
1.000000 0.140864 0.000000
0.000000 0.169254 0.000000
0.020119 0.169254 0.000000
0.041735 0.169254 0.000000
0.064382 0.169254 0.000000
0.088542 0.169254 0.000000
0.113971 0.169254 0.000000
0.140864 0.169254 0.000000
0.169254 0.169254 0.000000
0.198960 0.169254 0.000000
0.229934 0.169254 0.000000
0.262342 0.169254 0.000000
0.296089 0.169254 0.000000
0.330860 0.169254 0.000000
0.367041 0.169254 0.000000
0.404230 0.169254 0.000000
0.442184 0.169254 0.000000
0.481019 0.169254 0.000000
0.520225 0.169254 0.000000
0.559817 0.169254 0.000000
0.599764 0.169254 0.000000
0.639308 0.169254 0.000000
0.678514 0.169254 0.000000
0.717129 0.169254 0.000000
0.754736 0.169254 0.000000
0.791335 0.169254 0.000000
0.826484 0.169254 0.000000
0.860121 0.169254 0.000000
0.892032 0.169254 0.000000
0.921927 0.169254 0.000000
0.950049 0.169254 0.000000
0.976147 0.169254 0.000000
1.000000 0.169254 0.000000
0.000000 0.198960 0.000000
0.020119 0.198960 0.000000
0.041735 0.198960 0.000000
0.064382 0.198960 0.000000
0.088542 0.198960 0.000000
0.113971 0.198960 0.000000
0.140864 0.198960 0.000000
0.169254 0.198960 0.000000
0.198960 0.198960 0.000000
0.229934 0.198960 0.000000
0.262342 0.198960 0.000000
0.296089 0.198960 0.000000
0.330860 0.198960 0.000000
0.367041 0.198960 0.000000
0.404230 0.198960 0.000000
0.442184 0.198960 0.000000
0.481019 0.198960 0.000000
0.520225 0.198960 0.000000
0.559817 0.198960 0.000000
0.599764 0.198960 0.000000
0.639308 0.198960 0.000000
0.678514 0.198960 0.000000
0.717129 0.198960 0.000000
0.754736 0.198960 0.000000
0.791335 0.198960 0.000000
0.826484 0.198960 0.000000
0.860121 0.198960 0.000000
0.892032 0.198960 0.000000
0.921927 0.198960 0.000000
0.950049 0.198960 0.000000
0.976147 0.198960 0.000000
1.000000 0.198960 0.000000
0.000000 0.229934 0.000000
0.020119 0.229934 0.000000
0.041735 0.229934 0.000000
0.064382 0.229934 0.000000
0.088542 0.229934 0.000000
0.113971 0.229934 0.000000
0.140864 0.229934 0.000000
0.169254 0.229934 0.000000
0.198960 0.229934 0.000000
0.229934 0.229934 0.000000
0.262342 0.229934 0.000000
0.296089 0.229934 0.000000
0.330860 0.229934 0.000000
0.367041 0.229934 0.000000
0.404230 0.229934 0.000000
0.442184 0.229934 0.000000
0.481019 0.229934 0.000000
0.520225 0.229934 0.000000
0.559817 0.229934 0.000000
0.599764 0.229934 0.000000
0.639308 0.229934 0.000000
0.678514 0.229934 0.000000
0.717129 0.229934 0.000000
0.754736 0.229934 0.000000
0.791335 0.229934 0.000000
0.826484 0.229934 0.000000
0.860121 0.229934 0.000000
0.892032 0.229934 0.000000
0.921927 0.229934 0.000000
0.950049 0.229934 0.000000
0.976147 0.229934 0.000000
1.000000 0.229934 0.000000
0.000000 0.262342 0.000000
0.020119 0.262342 0.000000
0.041735 0.262342 0.000000
0.064382 0.262342 0.000000
0.088542 0.262342 0.000000
0.113971 0.262342 0.000000
0.140864 0.262342 0.000000
0.169254 0.262342 0.000000
0.198960 0.262342 0.000000
0.229934 0.262342 0.000000
0.262342 0.262342 0.000000
0.296089 0.262342 0.000000
0.330860 0.262342 0.000000
0.367041 0.262342 0.000000
0.404230 0.262342 0.000000
0.442184 0.262342 0.000000
0.481019 0.262342 0.000000
0.520225 0.262342 0.000000
0.559817 0.262342 0.000000
0.599764 0.262342 0.000000
0.639308 0.262342 0.000000
0.678514 0.262342 0.000000
0.717129 0.262342 0.000000
0.754736 0.262342 0.000000
0.791335 0.262342 0.000000
0.826484 0.262342 0.000000
0.860121 0.262342 0.000000
0.892032 0.262342 0.000000
0.921927 0.262342 0.000000
0.950049 0.262342 0.000000
0.976147 0.262342 0.000000
1.000000 0.262342 0.000000
0.000000 0.296089 0.000000
0.020119 0.296089 0.000000
0.041735 0.296089 0.000000
0.064382 0.296089 0.000000
0.088542 0.296089 0.000000
0.113971 0.296089 0.000000
0.140864 0.296089 0.000000
0.169254 0.296089 0.000000
0.198960 0.296089 0.000000
0.229934 0.296089 0.000000
0.262342 0.296089 0.000000
0.296089 0.296089 0.000000
0.330860 0.296089 0.000000
0.367041 0.296089 0.000000
0.404230 0.296089 0.000000
0.442184 0.296089 0.000000
0.481019 0.296089 0.000000
0.520225 0.296089 0.000000
0.559817 0.296089 0.000000
0.599764 0.296089 0.000000
0.639308 0.296089 0.000000
0.678514 0.296089 0.000000
0.717129 0.296089 0.000000
0.754736 0.296089 0.000000
0.791335 0.296089 0.000000
0.826484 0.296089 0.000000
0.860121 0.296089 0.000000
0.892032 0.296089 0.000000
0.921927 0.296089 0.000000
0.950049 0.296089 0.000000
0.976147 0.296089 0.000000
1.000000 0.296089 0.000000
0.000000 0.330860 0.000000
0.020119 0.330860 0.000000
0.041735 0.330860 0.000000
0.064382 0.330860 0.000000
0.088542 0.330860 0.000000
0.113971 0.330860 0.000000
0.140864 0.330860 0.000000
0.169254 0.330860 0.000000
0.198960 0.330860 0.000000
0.229934 0.330860 0.000000
0.262342 0.330860 0.000000
0.296089 0.330860 0.000000
0.330860 0.330860 0.000000
0.367041 0.330860 0.000000
0.404230 0.330860 0.000000
0.442184 0.330860 0.000000
0.481019 0.330860 0.000000
0.520225 0.330860 0.000000
0.559817 0.330860 0.000000
0.599764 0.330860 0.000000
0.639308 0.330860 0.000000
0.678514 0.330860 0.000000
0.717129 0.330860 0.000000
0.754736 0.330860 0.000000
0.791335 0.330860 0.000000
0.826484 0.330860 0.000000
0.860121 0.330860 0.000000
0.892032 0.330860 0.000000
0.921927 0.330860 0.000000
0.950049 0.330860 0.000000
0.976147 0.330860 0.000000
1.000000 0.330860 0.000000
0.000000 0.367041 0.000000
0.020119 0.367041 0.000000
0.041735 0.367041 0.000000
0.064382 0.367041 0.000000
0.088542 0.367041 0.000000
0.113971 0.367041 0.000000
0.140864 0.367041 0.000000
0.169254 0.367041 0.000000
0.198960 0.367041 0.000000
0.229934 0.367041 0.000000
0.262342 0.367041 0.000000
0.296089 0.367041 0.000000
0.330860 0.367041 0.000000
0.367041 0.367041 0.000000
0.404230 0.367041 0.000000
0.442184 0.367041 0.000000
0.481019 0.367041 0.000000
0.520225 0.367041 0.000000
0.559817 0.367041 0.000000
0.599764 0.367041 0.000000
0.639308 0.367041 0.000000
0.678514 0.367041 0.000000
0.717129 0.367041 0.000000
0.754736 0.367041 0.000000
0.791335 0.367041 0.000000
0.826484 0.367041 0.000000
0.860121 0.367041 0.000000
0.892032 0.367041 0.000000
0.921927 0.367041 0.000000
0.950049 0.367041 0.000000
0.976147 0.367041 0.000000
1.000000 0.367041 0.000000
0.000000 0.404230 0.000000
0.020119 0.404230 0.000000
0.041735 0.404230 0.000000
0.064382 0.404230 0.000000
0.088542 0.404230 0.000000
0.113971 0.404230 0.000000
0.140864 0.404230 0.000000
0.169254 0.404230 0.000000
0.198960 0.404230 0.000000
0.229934 0.404230 0.000000
0.262342 0.404230 0.000000
0.296089 0.404230 0.000000
0.330860 0.404230 0.000000
0.367041 0.404230 0.000000
0.404230 0.404230 0.000000
0.442184 0.404230 0.000000
0.481019 0.404230 0.000000
0.520225 0.404230 0.000000
0.559817 0.404230 0.000000
0.599764 0.404230 0.000000
0.639308 0.404230 0.000000
0.678514 0.404230 0.000000
0.717129 0.404230 0.000000
0.754736 0.404230 0.000000
0.791335 0.404230 0.000000
0.826484 0.404230 0.000000
0.860121 0.404230 0.000000
0.892032 0.404230 0.000000
0.921927 0.404230 0.000000
0.950049 0.404230 0.000000
0.976147 0.404230 0.000000
1.000000 0.404230 0.000000
0.000000 0.442184 0.000000
0.020119 0.442184 0.000000
0.041735 0.442184 0.000000
0.064382 0.442184 0.000000
0.088542 0.442184 0.000000
0.113971 0.442184 0.000000
0.140864 0.442184 0.000000
0.169254 0.442184 0.000000
0.198960 0.442184 0.000000
0.229934 0.442184 0.000000
0.262342 0.442184 0.000000
0.296089 0.442184 0.000000
0.330860 0.442184 0.000000
0.367041 0.442184 0.000000
0.404230 0.442184 0.000000
0.442184 0.442184 0.000000
0.481019 0.442184 0.000000
0.520225 0.442184 0.000000
0.559817 0.442184 0.000000
0.599764 0.442184 0.000000
0.639308 0.442184 0.000000
0.678514 0.442184 0.000000
0.717129 0.442184 0.000000
0.754736 0.442184 0.000000
0.791335 0.442184 0.000000
0.826484 0.442184 0.000000
0.860121 0.442184 0.000000
0.892032 0.442184 0.000000
0.921927 0.442184 0.000000
0.950049 0.442184 0.000000
0.976147 0.442184 0.000000
1.000000 0.442184 0.000000
0.000000 0.481019 0.000000
0.020119 0.481019 0.000000
0.041735 0.481019 0.000000
0.064382 0.481019 0.000000
0.088542 0.481019 0.000000
0.113971 0.481019 0.000000
0.140864 0.481019 0.000000
0.169254 0.481019 0.000000
0.198960 0.481019 0.000000
0.229934 0.481019 0.000000
0.262342 0.481019 0.000000
0.296089 0.481019 0.000000
0.330860 0.481019 0.000000
0.367041 0.481019 0.000000
0.404230 0.481019 0.000000
0.442184 0.481019 0.000000
0.481019 0.481019 0.000000
0.520225 0.481019 0.000000
0.559817 0.481019 0.000000
0.599764 0.481019 0.000000
0.639308 0.481019 0.000000
0.678514 0.481019 0.000000
0.717129 0.481019 0.000000
0.754736 0.481019 0.000000
0.791335 0.481019 0.000000
0.826484 0.481019 0.000000
0.860121 0.481019 0.000000
0.892032 0.481019 0.000000
0.921927 0.481019 0.000000
0.950049 0.481019 0.000000
0.976147 0.481019 0.000000
1.000000 0.481019 0.000000
0.000000 0.520225 0.000000
0.020119 0.520225 0.000000
0.041735 0.520225 0.000000
0.064382 0.520225 0.000000
0.088542 0.520225 0.000000
0.113971 0.520225 0.000000
0.140864 0.520225 0.000000
0.169254 0.520225 0.000000
0.198960 0.520225 0.000000
0.229934 0.520225 0.000000
0.262342 0.520225 0.000000
0.296089 0.520225 0.000000
0.330860 0.520225 0.000000
0.367041 0.520225 0.000000
0.404230 0.520225 0.000000
0.442184 0.520225 0.000000
0.481019 0.520225 0.000000
0.520225 0.520225 0.000000
0.559817 0.520225 0.000000
0.599764 0.520225 0.000000
0.639308 0.520225 0.000000
0.678514 0.520225 0.000000
0.717129 0.520225 0.000000
0.754736 0.520225 0.000000
0.791335 0.520225 0.000000
0.826484 0.520225 0.000000
0.860121 0.520225 0.000000
0.892032 0.520225 0.000000
0.921927 0.520225 0.000000
0.950049 0.520225 0.000000
0.976147 0.520225 0.000000
1.000000 0.520225 0.000000
0.000000 0.559817 0.000000
0.020119 0.559817 0.000000
0.041735 0.559817 0.000000
0.064382 0.559817 0.000000
0.088542 0.559817 0.000000
0.113971 0.559817 0.000000
0.140864 0.559817 0.000000
0.169254 0.559817 0.000000
0.198960 0.559817 0.000000
0.229934 0.559817 0.000000
0.262342 0.559817 0.000000
0.296089 0.559817 0.000000
0.330860 0.559817 0.000000
0.367041 0.559817 0.000000
0.404230 0.559817 0.000000
0.442184 0.559817 0.000000
0.481019 0.559817 0.000000
0.520225 0.559817 0.000000
0.559817 0.559817 0.000000
0.599764 0.559817 0.000000
0.639308 0.559817 0.000000
0.678514 0.559817 0.000000
0.717129 0.559817 0.000000
0.754736 0.559817 0.000000
0.791335 0.559817 0.000000
0.826484 0.559817 0.000000
0.860121 0.559817 0.000000
0.892032 0.559817 0.000000
0.921927 0.559817 0.000000
0.950049 0.559817 0.000000
0.976147 0.559817 0.000000
1.000000 0.559817 0.000000
0.000000 0.599764 0.000000
0.020119 0.599764 0.000000
0.041735 0.599764 0.000000
0.064382 0.599764 0.000000
0.088542 0.599764 0.000000
0.113971 0.599764 0.000000
0.140864 0.599764 0.000000
0.169254 0.599764 0.000000
0.198960 0.599764 0.000000
0.229934 0.599764 0.000000
0.262342 0.599764 0.000000
0.296089 0.599764 0.000000
0.330860 0.599764 0.000000
0.367041 0.599764 0.000000
0.404230 0.599764 0.000000
0.442184 0.599764 0.000000
0.481019 0.599764 0.000000
0.520225 0.599764 0.000000
0.559817 0.599764 0.000000
0.599764 0.599764 0.000000
0.639308 0.599764 0.000000
0.678514 0.599764 0.000000
0.717129 0.599764 0.000000
0.754736 0.599764 0.000000
0.791335 0.599764 0.000000
0.826484 0.599764 0.000000
0.860121 0.599764 0.000000
0.892032 0.599764 0.000000
0.921927 0.599764 0.000000
0.950049 0.599764 0.000000
0.976147 0.599764 0.000000
1.000000 0.599764 0.000000
0.000000 0.639308 0.000000
0.020119 0.639308 0.000000
0.041735 0.639308 0.000000
0.064382 0.639308 0.000000
0.088542 0.639308 0.000000
0.113971 0.639308 0.000000
0.140864 0.639308 0.000000
0.169254 0.639308 0.000000
0.198960 0.639308 0.000000
0.229934 0.639308 0.000000
0.262342 0.639308 0.000000
0.296089 0.639308 0.000000
0.330860 0.639308 0.000000
0.367041 0.639308 0.000000
0.404230 0.639308 0.000000
0.442184 0.639308 0.000000
0.481019 0.639308 0.000000
0.520225 0.639308 0.000000
0.559817 0.639308 0.000000
0.599764 0.639308 0.000000
0.639308 0.639308 0.000000
0.678514 0.639308 0.000000
0.717129 0.639308 0.000000
0.754736 0.639308 0.000000
0.791335 0.639308 0.000000
0.826484 0.639308 0.000000
0.860121 0.639308 0.000000
0.892032 0.639308 0.000000
0.921927 0.639308 0.000000
0.950049 0.639308 0.000000
0.976147 0.639308 0.000000
1.000000 0.639308 0.000000
0.000000 0.678514 0.000000
0.020119 0.678514 0.000000
0.041735 0.678514 0.000000
0.064382 0.678514 0.000000
0.088542 0.678514 0.000000
0.113971 0.678514 0.000000
0.140864 0.678514 0.000000
0.169254 0.678514 0.000000
0.198960 0.678514 0.000000
0.229934 0.678514 0.000000
0.262342 0.678514 0.000000
0.296089 0.678514 0.000000
0.330860 0.678514 0.000000
0.367041 0.678514 0.000000
0.404230 0.678514 0.000000
0.442184 0.678514 0.000000
0.481019 0.678514 0.000000
0.520225 0.678514 0.000000
0.559817 0.678514 0.000000
0.599764 0.678514 0.000000
0.639308 0.678514 0.000000
0.678514 0.678514 0.000000
0.717129 0.678514 0.000000
0.754736 0.678514 0.000000
0.791335 0.678514 0.000000
0.826484 0.678514 0.000000
0.860121 0.678514 0.000000
0.892032 0.678514 0.000000
0.921927 0.678514 0.000000
0.950049 0.678514 0.000000
0.976147 0.678514 0.000000
1.000000 0.678514 0.000000
0.000000 0.717129 0.000000
0.020119 0.717129 0.000000
0.041735 0.717129 0.000000
0.064382 0.717129 0.000000
0.088542 0.717129 0.000000
0.113971 0.717129 0.000000
0.140864 0.717129 0.000000
0.169254 0.717129 0.000000
0.198960 0.717129 0.000000
0.229934 0.717129 0.000000
0.262342 0.717129 0.000000
0.296089 0.717129 0.000000
0.330860 0.717129 0.000000
0.367041 0.717129 0.000000
0.404230 0.717129 0.000000
0.442184 0.717129 0.000000
0.481019 0.717129 0.000000
0.520225 0.717129 0.000000
0.559817 0.717129 0.000000
0.599764 0.717129 0.000000
0.639308 0.717129 0.000000
0.678514 0.717129 0.000000
0.717129 0.717129 0.000000
0.754736 0.717129 0.000000
0.791335 0.717129 0.000000
0.826484 0.717129 0.000000
0.860121 0.717129 0.000000
0.892032 0.717129 0.000000
0.921927 0.717129 0.000000
0.950049 0.717129 0.000000
0.976147 0.717129 0.000000
1.000000 0.717129 0.000000
0.000000 0.754736 0.000000
0.020119 0.754736 0.000000
0.041735 0.754736 0.000000
0.064382 0.754736 0.000000
0.088542 0.754736 0.000000
0.113971 0.754736 0.000000
0.140864 0.754736 0.000000
0.169254 0.754736 0.000000
0.198960 0.754736 0.000000
0.229934 0.754736 0.000000
0.262342 0.754736 0.000000
0.296089 0.754736 0.000000
0.330860 0.754736 0.000000
0.367041 0.754736 0.000000
0.404230 0.754736 0.000000
0.442184 0.754736 0.000000
0.481019 0.754736 0.000000
0.520225 0.754736 0.000000
0.559817 0.754736 0.000000
0.599764 0.754736 0.000000
0.639308 0.754736 0.000000
0.678514 0.754736 0.000000
0.717129 0.754736 0.000000
0.754736 0.754736 0.000000
0.791335 0.754736 0.000000
0.826484 0.754736 0.000000
0.860121 0.754736 0.000000
0.892032 0.754736 0.000000
0.921927 0.754736 0.000000
0.950049 0.754736 0.000000
0.976147 0.754736 0.000000
1.000000 0.754736 0.000000
0.000000 0.791335 0.000000
0.020119 0.791335 0.000000
0.041735 0.791335 0.000000
0.064382 0.791335 0.000000
0.088542 0.791335 0.000000
0.113971 0.791335 0.000000
0.140864 0.791335 0.000000
0.169254 0.791335 0.000000
0.198960 0.791335 0.000000
0.229934 0.791335 0.000000
0.262342 0.791335 0.000000
0.296089 0.791335 0.000000
0.330860 0.791335 0.000000
0.367041 0.791335 0.000000
0.404230 0.791335 0.000000
0.442184 0.791335 0.000000
0.481019 0.791335 0.000000
0.520225 0.791335 0.000000
0.559817 0.791335 0.000000
0.599764 0.791335 0.000000
0.639308 0.791335 0.000000
0.678514 0.791335 0.000000
0.717129 0.791335 0.000000
0.754736 0.791335 0.000000
0.791335 0.791335 0.000000
0.826484 0.791335 0.000000
0.860121 0.791335 0.000000
0.892032 0.791335 0.000000
0.921927 0.791335 0.000000
0.950049 0.791335 0.000000
0.976147 0.791335 0.000000
1.000000 0.791335 0.000000
0.000000 0.826484 0.000000
0.020119 0.826484 0.000000
0.041735 0.826484 0.000000
0.064382 0.826484 0.000000
0.088542 0.826484 0.000000
0.113971 0.826484 0.000000
0.140864 0.826484 0.000000
0.169254 0.826484 0.000000
0.198960 0.826484 0.000000
0.229934 0.826484 0.000000
0.262342 0.826484 0.000000
0.296089 0.826484 0.000000
0.330860 0.826484 0.000000
0.367041 0.826484 0.000000
0.404230 0.826484 0.000000
0.442184 0.826484 0.000000
0.481019 0.826484 0.000000
0.520225 0.826484 0.000000
0.559817 0.826484 0.000000
0.599764 0.826484 0.000000
0.639308 0.826484 0.000000
0.678514 0.826484 0.000000
0.717129 0.826484 0.000000
0.754736 0.826484 0.000000
0.791335 0.826484 0.000000
0.826484 0.826484 0.000000
0.860121 0.826484 0.000000
0.892032 0.826484 0.000000
0.921927 0.826484 0.000000
0.950049 0.826484 0.000000
0.976147 0.826484 0.000000
1.000000 0.826484 0.000000
0.000000 0.860121 0.000000
0.020119 0.860121 0.000000
0.041735 0.860121 0.000000
0.064382 0.860121 0.000000
0.088542 0.860121 0.000000
0.113971 0.860121 0.000000
0.140864 0.860121 0.000000
0.169254 0.860121 0.000000
0.198960 0.860121 0.000000
0.229934 0.860121 0.000000
0.262342 0.860121 0.000000
0.296089 0.860121 0.000000
0.330860 0.860121 0.000000
0.367041 0.860121 0.000000
0.404230 0.860121 0.000000
0.442184 0.860121 0.000000
0.481019 0.860121 0.000000
0.520225 0.860121 0.000000
0.559817 0.860121 0.000000
0.599764 0.860121 0.000000
0.639308 0.860121 0.000000
0.678514 0.860121 0.000000
0.717129 0.860121 0.000000
0.754736 0.860121 0.000000
0.791335 0.860121 0.000000
0.826484 0.860121 0.000000
0.860121 0.860121 0.000000
0.892032 0.860121 0.000000
0.921927 0.860121 0.000000
0.950049 0.860121 0.000000
0.976147 0.860121 0.000000
1.000000 0.860121 0.000000
0.000000 0.892032 0.000000
0.020119 0.892032 0.000000
0.041735 0.892032 0.000000
0.064382 0.892032 0.000000
0.088542 0.892032 0.000000
0.113971 0.892032 0.000000
0.140864 0.892032 0.000000
0.169254 0.892032 0.000000
0.198960 0.892032 0.000000
0.229934 0.892032 0.000000
0.262342 0.892032 0.000000
0.296089 0.892032 0.000000
0.330860 0.892032 0.000000
0.367041 0.892032 0.000000
0.404230 0.892032 0.000000
0.442184 0.892032 0.000000
0.481019 0.892032 0.000000
0.520225 0.892032 0.000000
