assets/luts/Everyday_EverydayCC.cube
# GSG LUTs 1.0
# Copyright (c) 2016-2020 Greyscalegorilla
# See EULA for licensing and distribution information
# Converted by Briz LUT Converter
LUT_3D_SIZE 5
DOMAIN_MIN 0.000000 0.000000 0.000000
DOMAIN_MAX 0.903226 0.903226 0.903226
0.005617 0.009035 0.007570
0.091039 0.019378 0.006373
0.282760 0.017905 0.000000
0.484162 0.000000 0.000000
0.600496 0.000000 0.000000
0.000000 0.068463 0.015006
0.116334 0.103416 0.009081
0.349022 0.128675 0.000000
0.579241 0.115270 0.000000
0.703793 0.075035 0.000000
0.000000 0.209744 0.007137
0.093865 0.284481 0.000000
0.423724 0.343487 0.000000
0.686982 0.369073 0.000000
0.811194 0.352849 0.000000
0.000000 0.354177 0.000000
0.042440 0.460321 0.000000
0.446032 0.548690 0.000000
0.728220 0.585046 0.000000
0.880341 0.580558 0.000000
0.000000 0.420111 0.000000
0.000000 0.514764 0.000000
0.378770 0.619523 0.000000
0.707290 0.690991 0.000000
0.905438 0.719944 0.000000
0.000867 0.011611 0.079853
0.092170 0.022687 0.089631
0.292837 0.022027 0.091799
0.502365 0.000000 0.075676
0.621781 0.000000 0.054438
0.000000 0.081525 0.112369
0.103554 0.122924 0.122003
0.357114 0.150407 0.120054
0.595752 0.144422 0.100574
0.723356 0.117357 0.079568
0.000000 0.234348 0.142766
0.048502 0.317325 0.146529
0.420752 0.383473 0.126416
0.697243 0.410594 0.077697
0.821671 0.382826 0.046285
0.000000 0.387894 0.156408
0.003646 0.497692 0.142635
0.410286 0.589225 0.065005
0.722216 0.624138 0.014533
0.887766 0.616429 0.000018
0.000000 0.450132 0.162758
0.000000 0.541810 0.116879
0.323483 0.657694 0.039515
0.693665 0.728740 0.000018
0.908970 0.756104 0.000000
0.000000 0.000402 0.258380
0.096635 0.002906 0.285156
0.305303 0.000916 0.308123
0.516425 0.000000 0.317188
0.636422 0.000000 0.317610
0.000000 0.090996 0.316768
0.068499 0.143955 0.346837
0.362526 0.169624 0.371514
0.609234 0.162227 0.380227
0.738454 0.136746 0.380111
0.000000 0.263944 0.379112
0.005603 0.351221 0.410648
0.400463 0.428206 0.433835
0.689749 0.445746 0.432325
0.820825 0.414174 0.405374
0.000000 0.425334 0.421879
0.000000 0.529553 0.443602
0.329037 0.635281 0.438879
0.694332 0.672542 0.414606
0.875860 0.666954 0.380477
0.000000 0.484205 0.425691
0.000000 0.572805 0.425796
0.178226 0.708264 0.415468
0.651264 0.786140 0.383912
0.889251 0.818139 0.337352
0.000000 0.000000 0.400803
0.072606 0.000000 0.438166
0.305869 0.000000 0.474052
0.524487 0.000000 0.494222
0.647942 0.000000 0.500839
0.000000 0.085364 0.473457
0.049635 0.146593 0.513994
0.363936 0.171920 0.553722
0.617218 0.160912 0.574648
0.748979 0.128950 0.579679
0.000000 0.275828 0.550163
0.000174 0.362522 0.594007
0.377149 0.448280 0.635196
0.674754 0.454941 0.646458
0.816081 0.422687 0.635964
0.000000 0.443090 0.602332
0.000000 0.536839 0.636197
0.227890 0.654264 0.663223
0.660957 0.694677 0.672938
0.858967 0.691490 0.664860
0.000000 0.503163 0.611808
0.000000 0.588654 0.635460
0.025985 0.732059 0.660758
0.599578 0.821449 0.672644
0.862476 0.857752 0.666658
0.000000 0.000000 0.475560
0.089084 0.001568 0.516231
0.329166 0.000475 0.558137
0.553547 0.000000 0.583260
0.678522 0.000000 0.592343
0.000000 0.108428 0.540822
0.036357 0.174243 0.584923
0.366496 0.205886 0.629975
0.627582 0.201355 0.656615
0.761396 0.173504 0.663582
0.000000 0.287965 0.612678
0.000000 0.374373 0.659218
0.359089 0.460236 0.705227
0.661371 0.461157 0.725022
0.812374 0.430667 0.726431
0.000000 0.448730 0.663114
0.000000 0.532045 0.700689
0.169159 0.651089 0.741226
0.635124 0.693537 0.767713
0.846227 0.692655 0.775636
0.000000 0.508196 0.677230
0.000000 0.589148 0.709998
0.002601 0.727783 0.750720
0.560531 0.827272 0.783221
0.842890 0.866918 0.797712
