assets/luts/Everyday_Pro_Color.cube
# GSG LUTs 1.0
# Copyright (c) 2016-2020 Greyscalegorilla
# See EULA for licensing and distribution information
# Converted by Briz LUT Converter
LUT_3D_SIZE 5
DOMAIN_MIN 0.000000 0.000000 0.000000
DOMAIN_MAX 0.903226 0.903226 0.903226
0.056166 0.059341 0.058120
0.137406 0.069384 0.056922
0.319461 0.067943 0.050928
0.510686 0.050794 0.050794
0.621301 0.050794 0.050794
0.050983 0.115916 0.065123
0.161412 0.149196 0.059631
0.382688 0.173448 0.050794
0.601564 0.161014 0.050794
0.719603 0.122751 0.050794
0.050794 0.250219 0.057552
0.140451 0.321585 0.050897
0.455136 0.378967 0.050794
0.705549 0.405242 0.050794
0.822852 0.390500 0.050794
0.050794 0.387869 0.050794
0.091719 0.489263 0.050794
0.478810 0.575824 0.050794
0.746929 0.612877 0.050794
0.889290 0.610004 0.050794
0.050794 0.450660 0.050794
0.050794 0.540996 0.050794
0.415704 0.643024 0.050794
0.728858 0.713576 0.050794
0.913395 0.742481 0.050794
0.051660 0.061917 0.126708
0.138439 0.072449 0.135985
0.329049 0.071825 0.138111
0.528101 0.050794 0.122959
0.641364 0.050794 0.102832
0.050794 0.128422 0.157503
0.149344 0.167727 0.166837
0.390578 0.194211 0.165377
0.617521 0.188963 0.147245
0.738447 0.163500 0.127416
0.050794 0.273662 0.186770
0.097274 0.352828 0.190543
0.452969 0.417591 0.172905
0.715827 0.445380 0.127349
0.833013 0.419495 0.097023
0.050794 0.420103 0.200205
0.054477 0.525003 0.187737
0.445558 0.614488 0.115289
0.741875 0.650179 0.066366
0.896335 0.644389 0.050874
0.050794 0.479643 0.206573
0.050794 0.567003 0.163429
0.363546 0.679236 0.090462
0.716529 0.749188 0.050940
0.916915 0.776729 0.050794
0.050928 0.051329 0.296057
0.142598 0.053699 0.321668
0.340917 0.051830 0.343553
0.541601 0.050794 0.352424
0.655638 0.050794 0.353323
0.050794 0.137393 0.351675
0.116098 0.187769 0.380406
0.396122 0.212800 0.404677
0.630781 0.206515 0.413746
0.753193 0.182516 0.414139
0.050794 0.302049 0.411441
0.056369 0.385487 0.441828
0.434944 0.461194 0.466502
0.710028 0.480365 0.467598
0.833038 0.450962 0.442716
0.050794 0.456304 0.452932
0.050794 0.555960 0.474545
0.369890 0.658895 0.473921
0.717583 0.697299 0.455736
0.886263 0.693651 0.425540
0.050794 0.512545 0.457033
0.050794 0.597167 0.458214
0.225616 0.727307 0.451642
0.679185 0.803891 0.428892
0.899783 0.835094 0.388878
0.050794 0.050794 0.431321
0.119821 0.050794 0.466919
0.341482 0.050794 0.501075
0.549466 0.050794 0.520666
0.666777 0.050794 0.527283
0.050794 0.131974 0.500445
0.098251 0.190308 0.539138
0.397697 0.215237 0.577677
0.638576 0.205604 0.598352
0.763263 0.175317 0.603431
0.050794 0.313616 0.573867
0.050968 0.396407 0.615857
0.413383 0.480810 0.657305
0.696478 0.489737 0.669977
0.828952 0.460038 0.660864
0.050794 0.473581 0.624302
0.050794 0.563283 0.657153
0.273579 0.676929 0.685359
0.687535 0.718887 0.698703
0.871477 0.717682 0.693148
0.050794 0.531025 0.633833
0.050794 0.612709 0.656981
0.077307 0.749582 0.682775
0.632639 0.837117 0.700215
0.876410 0.872240 0.698396
0.050794 0.050794 0.502225
0.135406 0.052385 0.540888
0.363727 0.051401 0.580929
0.577092 0.050794 0.605286
0.695934 0.050794 0.614148
0.050794 0.153915 0.564428
0.085602 0.216720 0.606517
0.400497 0.247882 0.650190
0.648943 0.244742 0.676363
0.775557 0.218623 0.683330
0.050794 0.325275 0.633104
0.050928 0.407857 0.677747
0.396512 0.492364 0.723400
0.684121 0.495911 0.743817
0.825764 0.468196 0.745535
0.050794 0.479003 0.681925
0.050794 0.558765 0.718067
0.216868 0.673669 0.758308
0.663601 0.717868 0.786489
0.859970 0.718939 0.795369
0.050794 0.536035 0.695790
0.050794 0.613409 0.727354
0.053615 0.745535 0.767008
0.596538 0.842627 0.802230
0.859149 0.880709 0.818268
