assets/luts/Everyday_Pro_Color.cube
# GSG LUTs 1.0
# Copyright (c) 2016-2020 Greyscalegorilla
# See EULA for licensing and distribution information
# Converted by Briz LUT Converter
LUT_3D_SIZE 32
0.056166 0.059341 0.058120
0.062972 0.060349 0.058128
0.069936 0.061373 0.058348
0.079286 0.062657 0.058120
0.089243 0.064201 0.058088
0.101965 0.066005 0.057836
0.116554 0.067927 0.057537
0.137406 0.069384 0.056922
0.161605 0.070645 0.055914
0.185805 0.071976 0.054835
0.210162 0.073331 0.053574
0.235212 0.073993 0.052401
0.261302 0.073709 0.051487
0.289354 0.071724 0.051038
0.319461 0.067943 0.050928
0.350538 0.062862 0.050794
0.382551 0.056308 0.050794
0.412289 0.052566 0.050794
0.440017 0.051447 0.050794
0.465501 0.050888 0.050794
0.488660 0.050794 0.050794
0.510686 0.050794 0.050794
0.532018 0.050794 0.050794
0.551743 0.050794 0.050794
0.569577 0.050794 0.050794
0.585592 0.050794 0.050794
0.598968 0.050794 0.050794
0.611186 0.050794 0.050794
0.621301 0.050794 0.050794
0.630903 0.050794 0.050794
0.638828 0.050794 0.050794
0.646642 0.050794 0.050794
0.055654 0.063618 0.058876
0.062736 0.064650 0.058891
0.070220 0.065950 0.059104
0.080116 0.067747 0.058876
0.090821 0.069772 0.058843
0.104065 0.071845 0.058584
0.119226 0.074082 0.058238
0.140791 0.076060 0.057426
0.165582 0.077902 0.056416
0.190491 0.079858 0.055260
0.215455 0.081560 0.053824
0.241283 0.082742 0.052558
0.268051 0.082979 0.051487
0.296623 0.081514 0.051035
0.327251 0.078143 0.050923
0.358848 0.073319 0.050794
0.391386 0.066891 0.050794
0.421920 0.061352 0.050794
0.450681 0.056701 0.050794
0.476744 0.053585 0.050794
0.500324 0.051992 0.050794
0.522531 0.051206 0.050794
0.543865 0.051040 0.050794
0.563591 0.050857 0.050794
0.581425 0.050794 0.050794
0.597440 0.050794 0.050794
0.610816 0.050794 0.050794
0.622821 0.050794 0.050794
0.632897 0.050794 0.050794
0.642270 0.050794 0.050794
0.650172 0.050794 0.050794
0.657978 0.050794 0.050794
0.054851 0.067840 0.059664
0.062453 0.069369 0.059892
0.070460 0.070931 0.059876
0.080929 0.073019 0.059646
0.092385 0.075352 0.059571
0.106203 0.077944 0.059118
0.122057 0.080702 0.058758
0.144034 0.083201 0.057943
0.169601 0.085502 0.056855
0.195284 0.087803 0.055508
0.221035 0.090020 0.053984
0.247549 0.091712 0.052558
0.274854 0.092470 0.051481
0.303956 0.091532 0.050926
0.335104 0.088705 0.050794
0.367229 0.084098 0.050794
0.400418 0.077743 0.050794
0.431725 0.070560 0.050794
0.461257 0.062543 0.050794
0.487939 0.057103 0.050794
0.511898 0.053890 0.050794
0.534387 0.052214 0.050794
0.555830 0.051511 0.050794
0.575576 0.051043 0.050794
0.593427 0.050874 0.050794
0.609445 0.050819 0.050794
0.622808 0.050809 0.050794
0.634810 0.050796 0.050794
0.644673 0.050794 0.050794
0.654009 0.050794 0.050794
0.661696 0.050794 0.050794
0.669258 0.050794 0.050794
0.053314 0.074922 0.060900
0.061460 0.076736 0.060900
0.069997 0.078612 0.060885
0.081483 0.081434 0.060633
0.093722 0.084287 0.060377
0.108342 0.087400 0.060065
0.125021 0.090678 0.059509
0.147962 0.093697 0.058624
0.174257 0.096512 0.057300
0.200635 0.099317 0.055710
0.227255 0.101981 0.054000
0.254387 0.104038 0.052558
0.282457 0.105316 0.051392
0.312244 0.105014 0.050794
0.343926 0.103085 0.050794
0.376682 0.099639 0.050794
0.410521 0.094492 0.050794
0.442485 0.088260 0.050794
0.472642 0.081058 0.050794
0.499844 0.074584 0.050794
0.524470 0.068855 0.050794
0.547576 0.063487 0.050794
0.569565 0.058044 0.050794
0.589651 0.054087 0.050794
0.607744 0.052178 0.050794
0.623833 0.051198 0.050794
0.637008 0.051038 0.050794
0.648974 0.050825 0.050794
0.658815 0.050794 0.050794
0.667957 0.050794 0.050794
0.675829 0.050794 0.050794
0.683398 0.050794 0.050794
0.051707 0.082453 0.061940
0.060458 0.084787 0.061940
0.069241 0.087184 0.061922
0.081720 0.090523 0.061641
0.094829 0.093868 0.061357
0.110454 0.097501 0.060848
0.127940 0.101294 0.060223
0.151669 0.104801 0.059152
0.178826 0.108055 0.057788
0.206157 0.111216 0.056078
0.233580 0.114390 0.054118
0.261426 0.116947 0.052538
0.290142 0.118745 0.051392
0.320690 0.119162 0.050794
0.353054 0.118141 0.050794
0.386363 0.115812 0.050794
0.420853 0.112161 0.050794
0.453444 0.107339 0.050794
0.484120 0.101361 0.050794
0.511843 0.094461 0.050794
0.536969 0.086524 0.050794
0.560713 0.077454 0.050794
0.583417 0.067549 0.050794
0.603915 0.060090 0.050794
0.622129 0.056043 0.050794
0.638410 0.053724 0.050794
0.651655 0.053074 0.050794
0.663653 0.052591 0.050794
0.673328 0.052271 0.050794
0.682658 0.052007 0.050794
0.690330 0.051839 0.050794
0.697893 0.051707 0.050794
0.051243 0.091567 0.063201
0.059441 0.094463 0.063199
0.067992 0.097452 0.063132
0.081334 0.101217 0.062685
0.095676 0.104885 0.062366
0.112342 0.108998 0.061822
0.130827 0.113230 0.061003
0.155426 0.117005 0.059821
0.183569 0.120616 0.058173
0.211772 0.124286 0.056044
0.240139 0.127884 0.053893
0.268867 0.130803 0.052361
0.298419 0.133096 0.051368
0.329601 0.134123 0.050794
0.362722 0.133877 0.050794
0.396812 0.132472 0.050794
0.431952 0.129882 0.050794
0.465085 0.126375 0.050794
0.496300 0.122064 0.050794
0.524519 0.116448 0.050794
0.550013 0.109530 0.050794
0.574031 0.101328 0.050794
0.596967 0.091913 0.050794
0.617872 0.083926 0.050794
0.636596 0.078202 0.050794
0.653055 0.073596 0.050794
0.666526 0.070319 0.050794
0.678819 0.067489 0.050794
0.688723 0.064763 0.050794
0.698111 0.062275 0.050794
0.705824 0.060673 0.050794
0.713388 0.059372 0.050794
0.051038 0.101698 0.064366
0.058218 0.105428 0.064359
0.066069 0.109356 0.064103
0.080412 0.113298 0.063784
0.095844 0.117417 0.063267
0.113607 0.121840 0.062634
0.133231 0.126380 0.061696
0.158967 0.130500 0.060162
0.188237 0.134594 0.058387
0.217470 0.138712 0.056048
0.246766 0.142667 0.053700
0.276446 0.146049 0.052079
0.306797 0.148718 0.051214
0.338702 0.150314 0.050794
0.372485 0.150822 0.050794
0.407332 0.150432 0.050794
0.443148 0.148989 0.050794
0.476933 0.146760 0.050794
0.508767 0.143869 0.050794
0.537401 0.139948 0.050794
0.563306 0.135218 0.050794
0.587625 0.129178 0.050794
0.610660 0.121975 0.050794
0.631800 0.114773 0.050794
0.650920 0.107621 0.050794
0.667839 0.100972 0.050794
0.681610 0.095206 0.050794
0.694301 0.089653 0.050794
0.704300 0.084506 0.050794
0.713884 0.079688 0.050794
0.721809 0.076553 0.050794
0.729426 0.073772 0.050794
0.050983 0.115916 0.065123
0.056020 0.120681 0.065058
0.061802 0.125443 0.064733
0.076860 0.130127 0.064172
0.093508 0.134639 0.063555
0.112735 0.139573 0.062538
0.134070 0.144588 0.061367
0.161412 0.149196 0.059631
0.192206 0.153687 0.057466
0.222806 0.158243 0.055158
0.253319 0.162663 0.052970
0.284044 0.166611 0.051628
0.315309 0.169785 0.051059
0.348149 0.172151 0.050794
0.382688 0.173448 0.050794
0.418217 0.173957 0.050794
0.454813 0.173554 0.050794
0.489232 0.172478 0.050794
0.521636 0.170856 0.050794
0.550839 0.168454 0.050794
0.577081 0.165305 0.050794
0.601564 0.161014 0.050794
0.624814 0.155790 0.050794
0.646319 0.150069 0.050794
0.665583 0.144034 0.050794
0.682674 0.138132 0.050794
0.696694 0.132741 0.050794
0.709425 0.127620 0.050794
0.719603 0.122751 0.050794
0.729206 0.118266 0.050794
0.737130 0.115419 0.050794
0.744945 0.112813 0.050794
0.050794 0.132427 0.065753
0.053607 0.138170 0.065430
0.056941 0.143956 0.064906
0.071912 0.149428 0.064085
0.089064 0.154745 0.063224
0.110149 0.160168 0.062056
0.133818 0.165557 0.060589
0.163106 0.170765 0.058411
0.195607 0.175841 0.055953
0.227817 0.180860 0.053792
0.259647 0.185830 0.052063
0.291734 0.190260 0.051092
0.324056 0.194141 0.050905
0.357820 0.197225 0.050794
0.393119 0.199290 0.050794
0.429420 0.200659 0.050794
0.466764 0.201264 0.050794
0.501872 0.201241 0.050794
0.534911 0.200708 0.050794
0.564519 0.199476 0.050794
0.591045 0.197587 0.050794
0.615916 0.194917 0.050794
0.639487 0.191469 0.050794
0.661113 0.187598 0.050794
0.680539 0.183547 0.050794
0.697723 0.179611 0.050794
0.711915 0.176278 0.050794
0.724676 0.173074 0.050794
0.734854 0.170034 0.050794
0.744456 0.167076 0.050794
0.752381 0.165420 0.050794
0.760195 0.163606 0.050794
0.050794 0.149529 0.065934
0.052079 0.156054 0.065428
0.053866 0.162668 0.064819
0.067028 0.169077 0.063730
0.082832 0.175388 0.062513
0.105738 0.181456 0.060854
0.132200 0.187400 0.059081
0.164066 0.193250 0.056757
0.198665 0.198789 0.054354
0.232615 0.204379 0.052518
0.266126 0.209790 0.051359
0.299537 0.214805 0.050794
0.333002 0.219394 0.050794
0.367752 0.223139 0.050794
0.404019 0.225879 0.050794
0.441113 0.227994 0.050794
0.479144 0.229437 0.050794
0.514994 0.230343 0.050794
0.548635 0.230682 0.050794
0.578763 0.230439 0.050794
0.605692 0.229559 0.050794
0.630849 0.227857 0.050794
0.654680 0.225634 0.050794
0.676566 0.223023 0.050794
0.696112 0.220371 0.050794
0.713459 0.217801 0.050794
0.727685 0.215598 0.050794
0.740508 0.213476 0.050794
0.750695 0.211417 0.050794
0.760298 0.209464 0.050794
0.768222 0.208466 0.050794
0.775966 0.207358 0.050794
0.050794 0.167411 0.065855
0.051301 0.174545 0.065183
0.052237 0.181556 0.064314
0.062220 0.189183 0.062941
0.074963 0.196657 0.061223
0.099715 0.203559 0.059194
0.129397 0.210090 0.057064
0.164068 0.216499 0.054776
0.201180 0.222669 0.052670
0.237255 0.228759 0.051555
0.272532 0.234814 0.051071
0.307407 0.240377 0.050794
0.342097 0.245537 0.050794
0.378028 0.249908 0.050794
0.415157 0.253429 0.050794
0.453074 0.256241 0.050794
0.491886 0.258335 0.050794
0.528378 0.259888 0.050794
0.562586 0.260984 0.050794
0.593219 0.261455 0.050794
0.620638 0.261289 0.050794
0.646144 0.260367 0.050794
0.670236 0.258870 0.050794
0.692382 0.257145 0.050794
0.712127 0.255183 0.050794
0.729576 0.253292 0.050794
0.743884 0.251643 0.050794
0.756802 0.250041 0.050794
0.767001 0.248446 0.050794
0.776530 0.246771 0.050794
0.784297 0.245804 0.050794
0.791784 0.244964 0.050794
0.050794 0.186246 0.065257
0.050794 0.193646 0.064159
0.051198 0.201125 0.063018
0.057725 0.209825 0.061207
0.066982 0.218607 0.059112
0.092715 0.226297 0.057070
0.125034 0.233577 0.054924
0.162588 0.240576 0.053018
0.202616 0.247309 0.051634
0.241227 0.254067 0.051038
0.278359 0.260732 0.050959
0.314848 0.266933 0.050794
0.350865 0.272754 0.050794
0.387907 0.277804 0.050794
0.426026 0.282067 0.050794
0.464862 0.285612 0.050794
0.504500 0.288401 0.050794
0.541676 0.290654 0.050794
0.576500 0.292385 0.050794
0.607674 0.293477 0.050794
0.635528 0.294003 0.050794
0.661412 0.293831 0.050794
0.685792 0.292935 0.050794
0.708133 0.291853 0.050794
0.728056 0.290583 0.050794
0.745677 0.289249 0.050794
0.760229 0.288120 0.050794
0.773043 0.286813 0.050794
0.782908 0.284865 0.050794
0.792005 0.282898 0.050794
0.799173 0.281091 0.050794
0.806129 0.279452 0.050794
0.050794 0.206097 0.063807
0.050794 0.213855 0.062446
0.050966 0.221728 0.060940
0.053755 0.231381 0.058662
0.059434 0.241212 0.056352
0.084959 0.249988 0.054433
0.118413 0.258206 0.052663
0.158933 0.265929 0.051663
0.202766 0.273207 0.051165
0.244235 0.280602 0.050943
0.283414 0.287980 0.050895
0.321592 0.294905 0.050794
0.359134 0.301406 0.050794
0.397401 0.307236 0.050794
0.436470 0.312208 0.050794
0.476225 0.316402 0.050794
0.516724 0.319923 0.050794
0.554723 0.322957 0.050794
0.590153 0.325376 0.050794
0.621944 0.327029 0.050794
0.650278 0.328075 0.050794
0.676562 0.328530 0.050794
0.701253 0.328272 0.050794
0.723738 0.327669 0.050794
0.743855 0.326821 0.050794
0.761603 0.325910 0.050794
0.776225 0.325046 0.050794
0.788968 0.323554 0.050794
0.798080 0.320805 0.050794
0.806480 0.317754 0.050794
0.812782 0.314414 0.050794
0.818890 0.311056 0.050794
0.050794 0.227390 0.061223
0.050794 0.235562 0.059601
0.050834 0.243867 0.057824
0.051499 0.254209 0.055869
0.054854 0.264903 0.053945
0.077279 0.274824 0.052514
0.108351 0.284352 0.051349
0.151603 0.292905 0.050983
0.200655 0.300847 0.050794
0.245663 0.309009 0.050794
0.287242 0.317134 0.050794
0.327462 0.324877 0.050794
0.366467 0.332223 0.050794
0.405973 0.338792 0.050794
0.446188 0.344485 0.050794
0.487018 0.349436 0.050794
0.528403 0.353713 0.050794
0.567264 0.357528 0.050794
0.603515 0.360728 0.050794
0.635850 0.363070 0.050794
0.664664 0.364676 0.050794
0.691298 0.365651 0.050794
0.716322 0.366020 0.050794
0.738945 0.365641 0.050794
0.758800 0.364684 0.050794
0.776258 0.363445 0.050794
0.790361 0.361784 0.050794
0.802616 0.359576 0.050794
0.811399 0.356017 0.050794
0.819489 0.352180 0.050794
0.825291 0.347823 0.050794
0.831187 0.343535 0.050794
0.050794 0.250219 0.057552
0.050794 0.258765 0.055674
0.050811 0.267453 0.053847
0.051087 0.278304 0.052814
0.053253 0.289535 0.052026
0.069528 0.300922 0.051398
0.094620 0.311935 0.051036
0.140451 0.321585 0.050897
0.196129 0.330394 0.050794
0.245561 0.339377 0.050794
0.289784 0.348384 0.050794
0.332174 0.356957 0.050794
0.372728 0.365219 0.050794
0.413670 0.372576 0.050794
0.455136 0.378967 0.050794
0.497153 0.384821 0.050794
0.539579 0.390009 0.050794
0.579275 0.394544 0.050794
0.616388 0.398475 0.050794
0.649322 0.401529 0.050794
0.678530 0.403782 0.050794
0.705549 0.405242 0.050794
0.730970 0.406018 0.050794
0.753520 0.405566 0.050794
0.772835 0.403958 0.050794
0.789430 0.401533 0.050794
0.802606 0.398332 0.050794
0.814153 0.394778 0.050794
0.822852 0.390500 0.050794
0.830839 0.386000 0.050794
0.836985 0.381571 0.050794
0.843034 0.377171 0.050794
0.050794 0.273024 0.054614
0.050794 0.281972 0.052967
0.050794 0.291181 0.051510
0.050794 0.302540 0.051152
0.051987 0.314252 0.051006
0.062052 0.326859 0.050794
0.080656 0.339262 0.050794
0.128556 0.350088 0.050794
0.190386 0.359994 0.050794
0.244244 0.369846 0.050794
0.291411 0.379671 0.050794
0.336077 0.389105 0.050794
0.378366 0.398199 0.050794
0.420918 0.406469 0.050794
0.463625 0.413709 0.050794
0.506747 0.420351 0.050794
0.550336 0.426328 0.050794
0.590984 0.431570 0.050794
0.628893 0.436221 0.050794
0.662213 0.439685 0.050794
0.691367 0.442026 0.050794
0.718211 0.443274 0.050794
0.743158 0.443616 0.050794
0.765266 0.442669 0.050794
0.784266 0.440532 0.050794
0.800663 0.437449 0.050794
0.813768 0.433657 0.050794
0.825280 0.429636 0.050794
0.834189 0.425047 0.050794
0.842294 0.420379 0.050794
0.848706 0.416070 0.050794
0.855000 0.411659 0.050794
0.050794 0.295837 0.052219
0.050794 0.305176 0.051613
0.050794 0.314783 0.051148
0.050794 0.326674 0.051026
0.051223 0.339086 0.050897
0.054807 0.352774 0.050794
0.066589 0.366454 0.050794
0.115944 0.378451 0.050794
0.183271 0.389496 0.050794
0.241577 0.400315 0.050794
0.292054 0.411002 0.050794
0.339268 0.421387 0.050794
0.383411 0.431262 0.050794
0.427497 0.440365 0.050794
0.471561 0.448459 0.050794
0.515932 0.455821 0.050794
0.560692 0.462579 0.050794
0.602364 0.468593 0.050794
0.641054 0.473968 0.050794
0.674536 0.477517 0.050794
0.703187 0.479305 0.050794
0.729039 0.479646 0.050794
0.752724 0.478679 0.050794
0.774093 0.476862 0.050794
0.793158 0.474270 0.050794
0.809917 0.471203 0.050794
0.823729 0.467752 0.050794
0.835912 0.464122 0.050794
0.845244 0.459809 0.050794
0.853857 0.455402 0.050794
0.860424 0.451109 0.050794
0.866974 0.446949 0.050794
0.050794 0.316783 0.050904
0.050794 0.326504 0.050904
0.050794 0.336517 0.050904
0.050794 0.348928 0.050893
0.050839 0.361876 0.050794
0.051184 0.376348 0.050794
0.059359 0.390966 0.050794
0.108123 0.404160 0.050794
0.176974 0.416452 0.050794
0.237922 0.428239 0.050794
0.291936 0.439745 0.050794
0.341740 0.450991 0.050794
0.387649 0.461595 0.050794
0.433271 0.471396 0.050794
0.478570 0.480211 0.050794
0.523778 0.488085 0.050794
0.568888 0.495131 0.050794
0.610551 0.501228 0.050794
0.648978 0.506483 0.050794
0.682335 0.509811 0.050794
0.710929 0.511355 0.050794
0.736532 0.511474 0.050794
0.759968 0.510222 0.050794
0.781400 0.508241 0.050794
0.800910 0.505750 0.050794
0.818314 0.503032 0.050794
0.832886 0.500079 0.050794
0.845850 0.496866 0.050794
0.855749 0.492951 0.050794
0.864885 0.488943 0.050794
0.871728 0.484804 0.050794
0.878554 0.480901 0.050794
0.050794 0.336051 0.050794
0.050794 0.346178 0.050794
0.050794 0.356565 0.050794
0.050794 0.369366 0.050794
0.050807 0.382864 0.050794
0.050896 0.397856 0.050794
0.058503 0.413092 0.050794
0.104967 0.427408 0.050794
0.171465 0.441022 0.050794
0.233575 0.453777 0.050794
0.291147 0.466018 0.050794
0.343587 0.477948 0.050794
0.391192 0.489290 0.050794
0.438278 0.499745 0.050794
0.484695 0.509208 0.050794
0.530268 0.517299 0.050794
0.574898 0.524085 0.050794
0.615704 0.529565 0.050794
0.652958 0.533815 0.050794
0.685832 0.536721 0.050794
0.714661 0.538448 0.050794
0.740829 0.538912 0.050794
0.765033 0.538314 0.050794
0.787255 0.536950 0.050794
0.807545 0.535073 0.050794
0.825819 0.532900 0.050794
0.841193 0.530467 0.050794
0.854937 0.527775 0.050794
0.865617 0.524381 0.050794
0.875298 0.521025 0.050794
0.882554 0.517172 0.050794
0.889897 0.513529 0.050794
0.050794 0.354311 0.050794
0.050794 0.364805 0.050794
0.050794 0.375607 0.050794
0.050794 0.388829 0.050794
0.050794 0.402804 0.050794
0.050794 0.418292 0.050794
0.057943 0.434020 0.050794
0.101536 0.449434 0.050794
0.164671 0.464285 0.050794
0.227790 0.477963 0.050794
0.289209 0.490797 0.050794
0.344161 0.503125 0.050794
0.392716 0.514687 0.050794
0.440192 0.525228 0.050794
0.486460 0.534553 0.050794
0.531764 0.542550 0.050794
0.575975 0.549153 0.050794
0.616713 0.554526 0.050794
0.654016 0.558596 0.050794
0.687231 0.561576 0.050794
0.716840 0.563744 0.050794
0.743924 0.564761 0.050794
0.768923 0.564772 0.050794
0.792023 0.564144 0.050794
0.813249 0.562853 0.050794
0.832337 0.561201 0.050794
0.848492 0.559288 0.050794
0.863017 0.556986 0.050794
0.874342 0.554093 0.050794
0.884693 0.551213 0.050794
0.892479 0.547779 0.050794
0.900193 0.544401 0.050794
0.050794 0.371799 0.050794
0.050794 0.382709 0.050794
0.050794 0.393726 0.050794
0.050794 0.407459 0.050794
0.050794 0.421849 0.050794
0.050794 0.437705 0.050794
0.057376 0.453942 0.050794
0.097488 0.470326 0.050794
0.156623 0.486413 0.050794
0.220586 0.500986 0.050794
0.286328 0.514289 0.050794
0.343622 0.526819 0.050794
0.392377 0.538198 0.050794
0.439259 0.548162 0.050794
0.484090 0.556658 0.050794
0.528536 0.564292 0.050794
0.572650 0.570846 0.050794
0.613895 0.576501 0.050794
0.652367 0.581172 0.050794
0.686908 0.584795 0.050794
0.717741 0.587646 0.050794
0.745899 0.589410 0.050794
0.771805 0.590134 0.050794
0.795774 0.590143 0.050794
0.817877 0.589397 0.050794
0.838022 0.588265 0.050794
0.855018 0.586741 0.050794
0.870324 0.584850 0.050794
0.882202 0.582466 0.050794
0.893162 0.579871 0.050794
0.901475 0.576788 0.050794
0.909614 0.573674 0.050794
0.050794 0.387869 0.050794
0.050794 0.399128 0.050794
0.050794 0.410488 0.050794
0.050794 0.424570 0.050794
0.050794 0.439320 0.050794
0.050794 0.455594 0.050794
0.056566 0.472229 0.050794
0.091719 0.489263 0.050794
0.145005 0.506030 0.050794
0.209136 0.520863 0.050794
0.279163 0.534093 0.050794
0.338713 0.546398 0.050794
0.387831 0.557604 0.050794
0.434576 0.567455 0.050794
0.478810 0.575824 0.050794
0.523174 0.583476 0.050794
0.567544 0.590457 0.050794
0.609603 0.596719 0.050794
0.649462 0.602228 0.050794
0.685394 0.606701 0.050794
0.717612 0.610332 0.050794
0.746929 0.612877 0.050794
0.773758 0.614264 0.050794
0.798533 0.614941 0.050794
0.821545 0.614887 0.050794
0.842647 0.614312 0.050794
0.860597 0.613236 0.050794
0.876709 0.611996 0.050794
0.889290 0.610004 0.050794
0.900941 0.607832 0.050794
0.909785 0.605181 0.050794
0.918280 0.602332 0.050794
0.050794 0.402552 0.050794
0.050794 0.414075 0.050794
0.050794 0.425782 0.050794
0.050794 0.440286 0.050794
0.050794 0.455306 0.050794
0.050794 0.471937 0.050794
0.055505 0.488993 0.050794
0.084219 0.506330 0.050794
0.129890 0.523174 0.050794
0.193328 0.537654 0.050794
0.267550 0.550174 0.050794
0.329390 0.562110 0.050794
0.379141 0.573331 0.050794
0.426452 0.583500 0.050794
0.471313 0.592475 0.050794
0.516249 0.600834 0.050794
0.561278 0.608466 0.050794
0.604445 0.615521 0.050794
0.645741 0.621933 0.050794
0.683047 0.627326 0.050794
0.716729 0.631918 0.050794
0.747265 0.635304 0.050794
0.774956 0.637539 0.050794
0.800640 0.638896 0.050794
0.824539 0.639443 0.050794
0.846439 0.639546 0.050794
0.865381 0.639169 0.050794
0.882466 0.638396 0.050794
0.895693 0.636997 0.050794
0.908108 0.635517 0.050794
0.917321 0.633229 0.050794
0.926425 0.630816 0.050794
0.050794 0.415109 0.050794
0.050794 0.426892 0.050794
0.050794 0.438851 0.050794
0.050794 0.453496 0.050794
0.050794 0.468542 0.050794
0.050794 0.484913 0.050794
0.054137 0.501915 0.050794
0.074515 0.519203 0.050794
0.110267 0.536169 0.050794
0.172930 0.550461 0.050794
0.252845 0.562606 0.050794
0.318113 0.574510 0.050794
0.368991 0.585946 0.050794
0.417290 0.596633 0.050794
0.462973 0.606484 0.050794
0.508656 0.615663 0.050794
0.554372 0.624039 0.050794
0.598444 0.631879 0.050794
0.641000 0.639209 0.050794
0.679748 0.645502 0.050794
0.714847 0.650947 0.050794
0.746538 0.655140 0.050794
0.775220 0.658206 0.050794
0.801790 0.660446 0.050794
0.826627 0.661747 0.050794
0.849349 0.662615 0.050794
0.869283 0.662866 0.050794
0.887251 0.662721 0.050794
0.901204 0.661921 0.050794
0.914392 0.661035 0.050794
0.924074 0.659203 0.050794
0.933767 0.657308 0.050794
0.050794 0.425444 0.050794
0.050794 0.437298 0.050794
0.050794 0.449490 0.050794
0.050794 0.463939 0.050794
0.050794 0.478725 0.050794
0.050794 0.494329 0.050794
0.052417 0.510400 0.050794
0.062271 0.527346 0.050794
0.085452 0.544362 0.050794
0.147582 0.558800 0.050794
0.235616 0.571425 0.050794
0.305582 0.583808 0.050794
0.358029 0.595822 0.050794
0.407730 0.607123 0.050794
0.454303 0.617791 0.050794
0.500675 0.627751 0.050794
0.546846 0.636809 0.050794
0.591727 0.645338 0.050794
0.635446 0.653486 0.050794
0.675454 0.660702 0.050794
0.712000 0.667001 0.050794
0.744890 0.672102 0.050794
0.774478 0.676010 0.050794
0.801987 0.679077 0.050794
0.827703 0.681321 0.050794
0.851372 0.682860 0.050794
0.872176 0.683803 0.050794
0.891099 0.684263 0.050794
0.905857 0.684163 0.050794
0.919649 0.683992 0.050794
0.930038 0.682693 0.050794
0.940069 0.681508 0.050794
0.050794 0.434094 0.050794
0.050794 0.445746 0.050794
0.050794 0.457771 0.050794
0.050794 0.471776 0.050794
0.050794 0.486237 0.050794
0.050794 0.501043 0.050794
0.051146 0.516365 0.050794
0.053195 0.533179 0.050794
0.066830 0.550092 0.050794
0.127325 0.564839 0.050794
0.219099 0.578087 0.050794
0.292053 0.591144 0.050794
0.346668 0.603789 0.050794
0.397790 0.615755 0.050794
0.445176 0.627001 0.050794
0.492207 0.637633 0.050794
0.538870 0.647443 0.050794
0.584443 0.656618 0.050794
0.629139 0.665458 0.050794
0.670342 0.673368 0.050794
0.708225 0.680519 0.050794
0.742264 0.686375 0.050794
0.772854 0.691157 0.050794
0.801388 0.695062 0.050794
0.827950 0.697977 0.050794
0.852603 0.700220 0.050794
0.874236 0.701768 0.050794
0.893817 0.702929 0.050794
0.909515 0.703602 0.050794
0.924055 0.703843 0.050794
0.935030 0.703246 0.050794
0.945528 0.702643 0.050794
0.050794 0.440569 0.050794
0.050794 0.451736 0.050794
0.050794 0.462891 0.050794
0.050794 0.476359 0.050794
0.050794 0.490178 0.050794
0.050794 0.504659 0.050794
0.050856 0.519823 0.050794
0.051236 0.536414 0.050794
0.062321 0.553251 0.050794
0.118386 0.568602 0.050794
0.205248 0.582676 0.050794
0.277303 0.596213 0.050794
0.334465 0.609265 0.050794
0.387362 0.621780 0.050794
0.435529 0.633638 0.050794
0.483020 0.644827 0.050794
0.529886 0.655101 0.050794
0.576132 0.664820 0.050794
0.621847 0.674207 0.050794
0.664246 0.682782 0.050794
0.703430 0.690595 0.050794
0.738599 0.697282 0.050794
0.770084 0.702784 0.050794
0.799448 0.707272 0.050794
0.826802 0.710878 0.050794
0.852274 0.713726 0.050794
0.874869 0.715803 0.050794
0.895400 0.717704 0.050794
0.911757 0.718788 0.050794
0.927063 0.719681 0.050794
0.938574 0.719661 0.050794
0.949797 0.719579 0.050794
0.050794 0.446406 0.050794
0.050794 0.456831 0.050794
0.050794 0.467183 0.050794
0.050794 0.480127 0.050794
0.050794 0.493422 0.050794
0.050794 0.507650 0.050794
0.050800 0.522587 0.050794
0.050839 0.538966 0.050794
0.060644 0.555847 0.050794
0.111866 0.571645 0.050794
0.192004 0.586515 0.050794
0.262255 0.600627 0.050794
0.322129 0.613872 0.050794
0.376717 0.626736 0.050794
0.425787 0.639160 0.050794
0.473796 0.650755 0.050794
0.520902 0.661530 0.050794
0.567706 0.671768 0.050794
