assets/luts/Everyday_EverydayCC.cube
# GSG LUTs 1.0
# Copyright (c) 2016-2020 Greyscalegorilla
# See EULA for licensing and distribution information
# Converted by Briz LUT Converter
LUT_3D_SIZE 8
DOMAIN_MIN 0.000000 0.000000 0.000000
DOMAIN_MAX 0.903226 0.903226 0.903226
0.005617 0.009035 0.007570
0.040466 0.014140 0.007539
0.116499 0.020828 0.005365
0.221726 0.023892 0.000599
0.349120 0.005632 0.000000
0.460877 0.000000 0.000000
0.546158 0.000000 0.000000
0.600496 0.000000 0.000000
0.000882 0.033400 0.011635
0.046328 0.045154 0.011052
0.134737 0.060105 0.007184
0.251925 0.071303 0.000579
0.389422 0.064298 0.000000
0.511711 0.037408 0.000000
0.601466 0.005358 0.000000
0.655304 0.001540 0.000000
0.000000 0.085793 0.015511
0.040232 0.109363 0.012918
0.152290 0.131515 0.005294
0.287198 0.150501 0.000111
0.437374 0.157654 0.000000
0.568045 0.153544 0.000000
0.662233 0.138559 0.000000
0.719605 0.124157 0.000000
0.000000 0.163346 0.013502
0.008954 0.200364 0.005771
0.159559 0.233694 0.000222
0.323596 0.262901 0.000000
0.488934 0.281567 0.000000
0.629339 0.289379 0.000000
0.728024 0.287510 0.000000
0.785509 0.280764 0.000000
0.000000 0.257639 0.001426
0.000444 0.303039 0.000000
0.138535 0.355545 0.000000
0.347949 0.398413 0.000000
0.533617 0.429940 0.000000
0.683700 0.446204 0.000000
0.778991 0.440159 0.000000
0.834447 0.424672 0.000000
0.000000 0.337351 0.000000
0.000000 0.389926 0.000000
0.110115 0.457092 0.000000
0.356005 0.509916 0.000000
0.544653 0.542747 0.000000
0.697573 0.559059 0.000000
0.804048 0.559801 0.000000
0.872994 0.551862 0.000000
0.000000 0.393588 0.000000
0.000000 0.449412 0.000000
0.035627 0.518004 0.000000
0.319335 0.570443 0.000000
0.516371 0.611888 0.000000
0.690330 0.642171 0.000000
0.813599 0.656003 0.000000
0.897680 0.658270 0.000000
0.000000 0.420111 0.000000
0.000000 0.467969 0.000000
0.008983 0.532181 0.000000
0.268277 0.593067 0.000000
0.478735 0.643062 0.000000
0.667741 0.683052 0.000000
0.806838 0.708086 0.000000
0.905438 0.719944 0.000000
0.003537 0.010808 0.029997
0.039706 0.015971 0.032117
0.118351 0.023152 0.032613
0.225799 0.026736 0.028643
0.356194 0.010232 0.018488
0.471264 0.000000 0.004828
0.557518 0.000000 0.001429
0.612383 0.000000 0.000828
0.000185 0.037319 0.040711
0.042590 0.051672 0.042858
0.135508 0.066572 0.042464
0.255882 0.078355 0.035860
0.396355 0.074867 0.022074
0.521079 0.053675 0.006325
0.612918 0.015118 0.002128
0.668328 0.002952 0.001541
0.000000 0.093111 0.053528
0.028357 0.119312 0.054576
0.149664 0.141622 0.051112
0.290407 0.161958 0.039475
0.444180 0.171716 0.018844
0.577480 0.169681 0.004154
0.673419 0.156131 0.002218
0.731424 0.143129 0.001547
0.000000 0.173595 0.062427
0.003170 0.211464 0.059872
0.147944 0.248855 0.049528
0.323896 0.279960 0.026819
0.494379 0.300167 0.006071
0.637994 0.308427 0.002408
0.738789 0.306279 0.001171
0.794802 0.295483 0.000335
0.000000 0.271882 0.060525
0.000027 0.318359 0.049838
0.118024 0.376208 0.025848
0.343462 0.421037 0.005437
0.536527 0.452844 0.001926
0.686780 0.464922 0.000328
0.783676 0.455259 0.000022
0.841630 0.437946 0.000000
0.000000 0.354413 0.050675
0.000000 0.408294 0.029041
0.069812 0.480088 0.006721
0.340510 0.531033 0.002075
0.536030 0.561150 0.000110
0.696342 0.576386 0.000000
0.807488 0.576379 0.000000
0.879857 0.567420 0.000000
0.000000 0.411619 0.042887
0.000000 0.466220 0.013978
0.016123 0.533207 0.003290
0.292448 0.588355 0.000436
0.503571 0.629251 0.000000
0.686522 0.659292 0.000000
0.815537 0.673317 0.000000
0.903585 0.675059 0.000000
0.000000 0.435630 0.038113
0.000000 0.482389 0.008593
0.004742 0.545011 0.002681
0.228141 0.609537 0.000193
0.463006 0.659272 0.000000
0.661794 0.699399 0.000000
0.807477 0.724954 0.000000
0.910254 0.736558 0.000000
0.000362 0.010981 0.103549
0.037087 0.016606 0.110513
0.119722 0.023443 0.117414
0.230660 0.026137 0.121471
0.363844 0.008824 0.120662
0.480698 0.000000 0.114581
0.568363 0.000000 0.105578
0.624239 0.000000 0.098566
0.000000 0.041641 0.122652
0.030816 0.060851 0.130108
0.132816 0.074984 0.137006
0.259272 0.086245 0.140520
0.403311 0.083025 0.138954
0.530195 0.063500 0.133105
0.623711 0.027387 0.125054
0.680506 0.006140 0.119001
0.000000 0.103258 0.145127
0.007535 0.133202 0.153123
0.137458 0.157243 0.159178
0.290195 0.177447 0.161161
0.448917 0.187298 0.157570
0.585178 0.186488 0.149537
0.682715 0.176430 0.139912
0.741264 0.166297 0.132954
0.000000 0.188728 0.166516
0.000311 0.226817 0.173604
0.117993 0.271071 0.178331
0.316213 0.302517 0.176871
0.495059 0.323280 0.169045
0.642897 0.333339 0.156120
0.745033 0.332146 0.141805
0.799695 0.317481 0.123293
0.000000 0.290954 0.182934
0.000000 0.337550 0.187476
0.060955 0.402008 0.188507
0.323577 0.449817 0.180108
0.529939 0.482904 0.161742
0.682372 0.491537 0.132409
0.782375 0.480467 0.101802
0.843733 0.462650 0.069924
0.000000 0.375997 0.193425
0.000000 0.429865 0.195048
0.016346 0.505414 0.190503
0.300080 0.560261 0.163626
0.515225 0.589813 0.124397
0.686774 0.606138 0.074593
0.803688 0.605870 0.024851
0.880299 0.595536 0.010236
0.000000 0.434264 0.203324
0.000000 0.486224 0.194637
0.003656 0.552094 0.171446
0.225294 0.617993 0.130978
0.476878 0.660692 0.078666
0.673040 0.690707 0.018282
0.809260 0.703438 0.008244
0.902434 0.703717 0.004709
0.000000 0.455363 0.201558
0.000000 0.500674 0.186136
0.000389 0.563597 0.159325
0.156362 0.637307 0.117464
0.430522 0.690091 0.054369
0.644645 0.730026 0.009894
0.799126 0.754499 0.004729
0.907565 0.764869 0.000454
0.000000 0.003056 0.206806
0.037324 0.007834 0.219328
0.123732 0.012083 0.232708
0.237890 0.011858 0.243486
0.371734 0.001207 0.250126
0.489188 0.000000 0.252365
0.577118 0.000000 0.251190
0.632975 0.000000 0.250093
0.000000 0.040633 0.234323
0.017607 0.065137 0.247664
0.130357 0.078801 0.261758
0.263834 0.088781 0.273066
0.411111 0.083998 0.279639
0.539628 0.063647 0.281853
0.633448 0.026967 0.280893
0.690186 0.006881 0.279870
0.000000 0.111987 0.266456
0.001165 0.143151 0.280849
0.118954 0.173042 0.295152
0.288493 0.192575 0.306403
0.453011 0.201815 0.312424
0.592046 0.200929 0.313882
0.690546 0.191255 0.312503
0.749346 0.181342 0.310853
0.000000 0.204574 0.298769
0.000000 0.242462 0.313356
0.074290 0.293831 0.328072
0.303546 0.326492 0.338492
0.493011 0.346949 0.343436
0.645115 0.356693 0.343729
0.746679 0.352318 0.337539
0.801315 0.334776 0.322766
0.000000 0.310914 0.326239
0.000000 0.357627 0.339871
0.015193 0.425576 0.353693
0.293440 0.479834 0.362271
0.514708 0.508651 0.361474
0.672534 0.514109 0.347770
0.776426 0.502283 0.328196
0.841365 0.484010 0.308573
0.000000 0.398210 0.346406
0.000000 0.452019 0.358855
0.004181 0.524969 0.367523
0.232525 0.587248 0.362668
0.485978 0.616769 0.348099
0.670214 0.633139 0.327446
0.793446 0.633514 0.303258
0.874502 0.623916 0.278634
0.000000 0.455699 0.359245
0.000000 0.505302 0.360647
0.000223 0.569665 0.356095
0.138505 0.644786 0.344880
0.436897 0.690425 0.326130
0.650851 0.721818 0.298505
0.795232 0.736574 0.265673
0.893592 0.737994 0.229190
0.000000 0.475458 0.355084
0.000000 0.519812 0.351756
0.000000 0.581846 0.345331
0.047355 0.662432 0.332569
0.380027 0.720947 0.311194
0.617613 0.762963 0.278087
0.782466 0.790148 0.233027
0.897042 0.802261 0.187011
0.000000 0.000000 0.305605
0.026154 0.000015 0.322077
0.122450 0.000118 0.340566
0.241226 0.000072 0.356849
0.375525 0.000000 0.368475
0.494398 0.000000 0.375267
0.583405 0.000000 0.377663
0.639568 0.000000 0.378825
0.000000 0.030944 0.339951
0.009518 0.059778 0.357584
0.129182 0.073373 0.377130
0.268540 0.081654 0.394732
0.417783 0.074738 0.406793
0.547209 0.051051 0.413506
0.641349 0.014802 0.415889
0.697675 0.005072 0.416697
0.000000 0.114784 0.380096
0.000272 0.146680 0.398819
0.103224 0.182187 0.419588
0.286357 0.201560 0.437714
0.455881 0.210026 0.449923
0.597072 0.208419 0.456486
0.696367 0.198207 0.458421
0.755866 0.187753 0.458357
0.000000 0.214480 0.420191
0.000000 0.252764 0.439881
0.037097 0.308908 0.461676
0.289151 0.344000 0.479444
0.489144 0.364122 0.491438
0.645048 0.373525 0.497504
0.745009 0.364212 0.492207
0.801183 0.345033 0.480109
0.000000 0.324962 0.454918
0.000000 0.371661 0.474255
0.005882 0.440128 0.495667
0.252748 0.501876 0.513080
0.495917 0.525684 0.517990
0.660027 0.529192 0.511670
0.768585 0.517429 0.499409
0.837139 0.499316 0.485527
0.000000 0.414497 0.480258
0.000000 0.467906 0.498856
0.000478 0.536685 0.513171
0.159848 0.605203 0.518812
0.452970 0.636703 0.516976
0.650819 0.653439 0.508785
0.780467 0.654412 0.495942
0.865937 0.645253 0.481036
0.000000 0.471614 0.493431
0.000000 0.518795 0.500673
0.000000 0.582074 0.506713
0.041832 0.662947 0.509495
0.387987 0.714466 0.506791
0.624266 0.746520 0.497019
0.777399 0.762268 0.482831
0.880763 0.764389 0.465980
0.000000 0.491544 0.489924
0.000000 0.535213 0.494557
0.000000 0.596469 0.499066
0.007025 0.678293 0.500370
0.308385 0.747347 0.496938
0.584770 0.790418 0.486437
0.761254 0.818975 0.470520
0.881308 0.832252 0.451165
0.000000 0.000000 0.385316
0.005236 0.000000 0.404797
0.111203 0.000000 0.427210
0.238424 0.000000 0.447680
0.376580 0.000000 0.463282
0.498090 0.000000 0.473433
0.588885 0.000000 0.478428
0.645996 0.000000 0.481145
0.000000 0.017480 0.423806
0.006360 0.048669 0.444255
0.128412 0.062986 0.467818
0.270947 0.069868 0.489807
0.421844 0.060110 0.506163
0.552841 0.029969 0.516437
0.647040 0.006931 0.521183
0.703516 0.003738 0.523436
0.000000 0.113099 0.468527
0.000125 0.145641 0.489953
0.090983 0.184755 0.514601
0.282952 0.204416 0.537775
0.456402 0.212117 0.554703
0.599790 0.209650 0.565056
0.700727 0.198474 0.569669
0.760137 0.184752 0.570118
0.000000 0.218612 0.513006
0.000000 0.256307 0.535607
0.019028 0.313876 0.561542
0.274596 0.352574 0.585078
0.483442 0.372422 0.602341
0.641401 0.379642 0.611646
0.741160 0.366534 0.608668
0.799927 0.346229 0.600475
0.000000 0.331957 0.551580
0.000000 0.378165 0.574421
0.002724 0.446352 0.600721
0.217597 0.511004 0.623296
0.475630 0.531122 0.633523
0.646504 0.533856 0.634722
0.759815 0.522384 0.629318
0.832345 0.504616 0.620949
0.000000 0.423419 0.579786
0.000000 0.475207 0.601325
0.000008 0.539700 0.620452
0.095564 0.611083 0.634737
0.419299 0.645572 0.643255
0.630983 0.663288 0.645279
0.767183 0.665157 0.641101
0.857138 0.656531 0.632941
0.000000 0.480275 0.592890
0.000000 0.525160 0.605759
0.000000 0.586921 0.620397
0.008121 0.668576 0.633614
0.332802 0.728302 0.642959
0.596936 0.761294 0.645384
0.759363 0.778268 0.642108
0.868360 0.781575 0.634293
0.000000 0.501579 0.592714
0.000000 0.544000 0.603773
0.000000 0.604268 0.616930
0.001723 0.685383 0.629151
0.232628 0.763873 0.638764
0.550553 0.809080 0.641640
0.739511 0.839297 0.638741
0.866022 0.854060 0.631047
0.000000 0.000000 0.438355
0.001639 0.000000 0.459081
0.107560 0.000000 0.483455
0.241185 0.000000 0.506860
0.382657 0.000000 0.525238
0.506302 0.000000 0.537867
0.598590 0.000000 0.544488
0.656331 0.000000 0.548062
0.000000 0.014173 0.476726
0.003673 0.048030 0.498517
0.126204 0.065400 0.524360
0.273304 0.072080 0.548870
0.426747 0.062584 0.568234
0.559608 0.032304 0.581035
0.654834 0.008036 0.587462
0.712275 0.004218 0.590735
0.000000 0.115767 0.521558
0.000029 0.148937 0.544549
0.080614 0.191190 0.571721
0.280322 0.211102 0.597482
0.457377 0.218989 0.617560
0.602766 0.216702 0.630800
0.704337 0.204793 0.636632
0.763486 0.187408 0.637399
0.000000 0.222165 0.566694
0.000000 0.259966 0.590626
0.014293 0.318126 0.619112
0.263983 0.358932 0.645750
0.478951 0.378494 0.666229
0.636298 0.382291 0.677423
0.736909 0.367274 0.677735
0.798479 0.346151 0.673843
0.000000 0.335634 0.606176
0.000000 0.381340 0.630446
0.001190 0.448795 0.659112
0.191542 0.511765 0.683971
0.457685 0.529862 0.698933
0.634399 0.532378 0.706557
0.751774 0.521790 0.707467
0.827860 0.504143 0.704428
0.000000 0.427437 0.635106
0.000000 0.475612 0.656984
0.000000 0.536302 0.679750
0.053043 0.608744 0.700601
0.391825 0.646079 0.716868
0.613964 0.663994 0.726637
0.755626 0.666742 0.729841
0.849612 0.658717 0.728132
0.000000 0.482808 0.648325
0.000000 0.525882 0.665387
0.000000 0.585958 0.685776
0.004090 0.666143 0.706468
0.284016 0.731885 0.724463
0.573423 0.765662 0.736146
0.743591 0.783764 0.741495
0.857736 0.787891 0.741292
0.000000 0.505959 0.652075
0.000000 0.546852 0.667466
0.000000 0.605873 0.686749
0.000030 0.685709 0.706752
0.173094 0.769422 0.725593
0.520486 0.817249 0.738632
0.720459 0.849014 0.745522
0.852930 0.864928 0.746774
0.000000 0.000000 0.475560
0.010538 0.000934 0.497081
0.125794 0.001574 0.522533
0.259332 0.001482 0.547370
0.402733 0.000000 0.567367
0.527985 0.000000 0.580984
0.620536 0.000000 0.588231
0.678522 0.000000 0.592343
0.000000 0.037966 0.510177
0.001849 0.073760 0.532713
0.117906 0.099153 0.559474
0.277102 0.108216 0.585353
0.435615 0.103943 0.606029
0.571388 0.084740 0.620353
0.669653 0.053248 0.627616
0.729779 0.032255 0.631678
0.000000 0.133752 0.551245
0.000000 0.167169 0.574657
0.064078 0.213322 0.602829
0.278187 0.235227 0.629726
0.460046 0.244888 0.651251
0.607984 0.244765 0.665741
0.711155 0.234789 0.672526
0.769505 0.214874 0.673007
0.000000 0.234307 0.593282
0.000000 0.272444 0.617703
0.010236 0.330927 0.646698
0.256230 0.375180 0.674787
0.477058 0.395276 0.696588
0.632021 0.395233 0.708030
0.734266 0.379524 0.710598
0.799025 0.358940 0.709269
0.000000 0.342397 0.630640
0.000000 0.387943 0.655214
0.000620 0.454584 0.684377
0.173883 0.514346 0.709371
0.442929 0.531743 0.726740
0.624495 0.534788 0.737878
0.745100 0.525408 0.742163
0.824658 0.508134 0.742340
0.000000 0.431588 0.658458
0.000000 0.476025 0.679928
0.000000 0.533101 0.703672
0.033140 0.604939 0.727209
0.370100 0.644378 0.747130
0.599886 0.662491 0.760833
0.745680 0.666047 0.768090
0.843513 0.658577 0.770179
0.000000 0.484202 0.671755
0.000000 0.525416 0.690055
0.000000 0.583457 0.712802
0.002493 0.661445 0.736339
0.251598 0.729842 0.758227
0.555305 0.764177 0.774125
0.731254 0.783006 0.784046
0.849498 0.787307 0.788341
0.000000 0.508196 0.677230
0.000000 0.547529 0.694001
0.000000 0.604888 0.715624
0.000000 0.682268 0.738802
0.135774 0.767941 0.761685
0.497852 0.817426 0.779543
0.705949 0.850246 0.791784
0.842890 0.866918 0.797712
