assets/luts/Everyday_Pro_Color.cube
# GSG LUTs 1.0
# Copyright (c) 2016-2020 Greyscalegorilla
# See EULA for licensing and distribution information
# Converted by Briz LUT Converter
LUT_3D_SIZE 8
DOMAIN_MIN 0.000000 0.000000 0.000000
DOMAIN_MAX 0.903226 0.903226 0.903226
0.056166 0.059341 0.058120
0.089243 0.064201 0.058088
0.161605 0.070645 0.055914
0.261302 0.073709 0.051487
0.382551 0.056308 0.050794
0.488660 0.050794 0.050794
0.569577 0.050794 0.050794
0.621301 0.050794 0.050794
0.051707 0.082453 0.061940
0.094829 0.093868 0.061357
0.178826 0.108055 0.057788
0.290142 0.118745 0.051392
0.420853 0.112161 0.050794
0.536969 0.086524 0.050794
0.622129 0.056043 0.050794
0.673328 0.052271 0.050794
0.050794 0.132427 0.065753
0.089064 0.154745 0.063224
0.195607 0.175841 0.055953
0.324056 0.194141 0.050905
0.466764 0.201264 0.050794
0.591045 0.197587 0.050794
0.680539 0.183547 0.050794
0.734854 0.170034 0.050794
0.050794 0.206097 0.063807
0.059434 0.241212 0.056352
0.202766 0.273207 0.051165
0.359134 0.301406 0.050794
0.516724 0.319923 0.050794
0.650278 0.328075 0.050794
0.743855 0.326821 0.050794
0.798080 0.320805 0.050794
0.050794 0.295837 0.052219
0.051223 0.339086 0.050897
0.183271 0.389496 0.050794
0.383411 0.431262 0.050794
0.560692 0.462579 0.050794
0.703187 0.479305 0.050794
0.793158 0.474270 0.050794
0.845244 0.459809 0.050794
0.050794 0.371799 0.050794
0.050794 0.421849 0.050794
0.156623 0.486413 0.050794
0.392377 0.538198 0.050794
0.572650 0.570846 0.050794
0.717741 0.587646 0.050794
0.817877 0.589397 0.050794
0.882202 0.582466 0.050794
0.050794 0.425444 0.050794
0.050794 0.478725 0.050794
0.085452 0.544362 0.050794
0.358029 0.595822 0.050794
0.546846 0.636809 0.050794
0.712000 0.667001 0.050794
0.827703 0.681321 0.050794
0.905857 0.684163 0.050794
0.050794 0.450660 0.050794
0.050794 0.496254 0.050794
0.059582 0.557714 0.050794
0.309531 0.617172 0.050794
0.511623 0.666182 0.050794
0.691506 0.705717 0.050794
0.821957 0.730595 0.050794
0.913395 0.742481 0.050794
0.054331 0.061113 0.079263
0.088511 0.066032 0.081350
0.163236 0.072914 0.081847
0.265280 0.076309 0.078121
0.389130 0.060648 0.068440
0.498315 0.050794 0.055577
0.580369 0.050794 0.052191
0.632668 0.050794 0.051591
0.051034 0.086341 0.089456
0.091335 0.099925 0.091548
0.179632 0.114109 0.091185
0.294052 0.125390 0.085107
0.427628 0.122240 0.072000
0.546074 0.102120 0.056992
0.633069 0.065403 0.052831
0.685644 0.053651 0.052272
0.050794 0.139257 0.101698
0.077757 0.164188 0.102745
0.193185 0.185602 0.099587
0.327151 0.205077 0.088560
0.473386 0.214620 0.069036
0.600134 0.213148 0.054988
0.691096 0.200515 0.052948
0.746207 0.188133 0.052317
0.050794 0.215838 0.110164
0.053944 0.251792 0.107847
0.191898 0.287607 0.098238
0.359600 0.317862 0.076672
0.522085 0.337848 0.056810
0.658659 0.346490 0.053195
0.754181 0.345036 0.051974
0.806883 0.335015 0.051150
0.050794 0.309316 0.108578
0.050838 0.353747 0.098418
0.163816 0.409171 0.075740
0.379344 0.452941 0.056225
0.563743 0.484656 0.052736
0.706395 0.497304 0.051153
0.797722 0.488867 0.050844
0.852055 0.472663 0.050794
0.050794 0.388097 0.099387
0.050794 0.439434 0.078773
0.118130 0.508180 0.057529
0.377831 0.558256 0.053024
0.564762 0.588333 0.050929
0.716845 0.604236 0.050794
0.821203 0.605289 0.050794
0.888682 0.597554 0.050794
0.050794 0.442711 0.092019
0.050794 0.494776 0.064370
0.066723 0.558805 0.054155
0.332542 0.612823 0.051261
0.535033 0.653284 0.050794
0.708744 0.683292 0.050794
0.829670 0.697717 0.050794
0.911494 0.700204 0.050794
0.050794 0.465658 0.087685
0.050794 0.510161 0.059375
0.055475 0.569971 0.053420
0.271218 0.632639 0.051001
0.496806 0.681492 0.050794
0.686098 0.721212 0.050794
0.822798 0.746457 0.050794
0.917968 0.758307 0.050794
0.051219 0.061349 0.149206
0.086085 0.066643 0.155832
0.164568 0.073109 0.162260
0.269967 0.075710 0.166270
0.396510 0.059288 0.165642
0.507505 0.050794 0.159868
0.590791 0.050794 0.151480
0.643822 0.050794 0.144925
0.050794 0.090409 0.167396
0.080271 0.108611 0.174391
0.177104 0.122202 0.181081
0.297257 0.132937 0.184550
0.434127 0.130046 0.183303
0.554816 0.111615 0.177830
0.643440 0.077135 0.170196
0.697475 0.056947 0.164396
0.050794 0.148916 0.188642
0.058078 0.177498 0.196316
0.181658 0.200479 0.202217
0.327004 0.219972 0.204431
0.478196 0.229718 0.201423
0.607660 0.229475 0.194220
0.700205 0.220057 0.185240
0.755774 0.210570 0.178835
0.050794 0.230195 0.209093
0.051113 0.266509 0.216048
0.163465 0.308950 0.220870
0.352615 0.339585 0.220231
0.523179 0.360356 0.213506
0.663849 0.370858 0.202053
0.760469 0.370249 0.188765
0.811910 0.356558 0.171066
0.050794 0.327623 0.224983
0.050794 0.372172 0.229498
0.109413 0.433809 0.231139
0.361110 0.480789 0.224558
0.558280 0.513801 0.208448
0.702823 0.523265 0.181331
0.796835 0.513381 0.152047
0.854388 0.496750 0.121037
0.050794 0.408800 0.235358
0.050794 0.460157 0.237294
0.066802 0.532528 0.233576
0.340025 0.586351 0.209717
0.545849 0.616025 0.173700
0.708395 0.632858 0.126300
0.818042 0.633535 0.076810
0.889321 0.624430 0.061632
0.050794 0.464437 0.245311
0.050794 0.513986 0.237193
0.054523 0.576945 0.215639
0.268927 0.640965 0.178599
0.510431 0.683241 0.129716
0.696618 0.713063 0.070120
0.824309 0.726283 0.059668
0.910497 0.727291 0.056083
0.050794 0.484610 0.243602
0.050794 0.527883 0.229310
0.051184 0.588013 0.204244
0.202818 0.658957 0.165417
0.466639 0.710859 0.105748
0.670490 0.750038 0.061414
0.815384 0.774200 0.056046
0.915602 0.784825 0.051444
0.051038 0.053850 0.247265
0.086333 0.058364 0.259034
0.168436 0.062459 0.271882
0.276826 0.062200 0.282235
0.404063 0.052049 0.288585
0.515560 0.050794 0.290906
0.599262 0.050794 0.289844
0.652229 0.050794 0.289077
0.050794 0.089473 0.273284
0.067597 0.112641 0.285964
0.174747 0.125826 0.299556
0.301695 0.135466 0.310511
0.441699 0.131097 0.317041
0.563923 0.111761 0.319325
0.652888 0.076736 0.318427
0.706657 0.057514 0.317459
0.050794 0.157362 0.303952
0.051982 0.186903 0.317639
0.164210 0.215601 0.331501
0.325601 0.234551 0.342629
0.482395 0.243902 0.348938
0.614565 0.243457 0.350940
0.708109 0.234772 0.350070
0.763704 0.225391 0.348628
0.050794 0.245313 0.334830
0.050794 0.281545 0.348875
0.121972 0.330622 0.363237
0.341015 0.362877 0.374160
0.521869 0.383455 0.380154
0.666519 0.393832 0.381545
0.762492 0.390418 0.376406
0.813881 0.373840 0.362474
0.050794 0.346819 0.361349
0.050794 0.391417 0.374560
0.065639 0.456406 0.388293
0.333034 0.509781 0.398430
0.544795 0.539048 0.399782
0.694332 0.545550 0.388351
0.792042 0.535232 0.370397
0.852633 0.518151 0.352087
0.050794 0.430304 0.381039
0.050794 0.481714 0.393297
0.055001 0.551411 0.402186
0.276097 0.612188 0.399894
0.519234 0.642250 0.388788
0.694048 0.659362 0.371440
0.809390 0.660782 0.349889
0.884465 0.652302 0.326977
0.050794 0.485229 0.393749
0.050794 0.532642 0.395370
0.051052 0.594171 0.391771
0.186114 0.666496 0.383159
0.473690 0.711947 0.368805
0.677187 0.743190 0.345665
0.812254 0.758100 0.316297
0.902988 0.760196 0.282295
0.050794 0.504044 0.389832
0.050794 0.546506 0.387149
0.050832 0.605662 0.381735
0.097703 0.682744 0.370903
0.420020 0.740412 0.354591
0.646623 0.781694 0.326605
0.801015 0.808172 0.285893
0.906446 0.820064 0.242702
0.050794 0.050794 0.340998
0.075742 0.050928 0.356706
0.167161 0.051156 0.374305
0.280052 0.050989 0.389870
0.407675 0.050794 0.401052
0.520635 0.050794 0.407680
0.605360 0.050794 0.410118
0.658663 0.050794 0.411407
0.050794 0.080287 0.373674
0.059973 0.107741 0.390316
0.173697 0.120704 0.409123
0.306248 0.128756 0.426053
0.448180 0.122302 0.437830
0.571152 0.099822 0.444340
0.660523 0.065214 0.446628
0.713886 0.055811 0.447541
0.050794 0.159953 0.411818
0.051058 0.190306 0.429732
0.149306 0.224290 0.449632
0.323863 0.243257 0.467440
0.485365 0.252004 0.479690
0.619668 0.251037 0.486518
0.713839 0.241650 0.488796
0.770031 0.231904 0.489121
0.050794 0.255033 0.450214
0.050794 0.291451 0.469030
0.086503 0.345082 0.490069
0.327669 0.379712 0.508140
0.518707 0.400335 0.520904
0.667002 0.410539 0.527809
0.761376 0.402429 0.523477
0.814095 0.384378 0.512127
0.050794 0.360347 0.483645
0.050794 0.405020 0.502340
0.056614 0.470580 0.523111
0.294698 0.531036 0.541655
0.527675 0.555730 0.548442
0.683281 0.560522 0.544078
0.785238 0.550262 0.533339
0.849175 0.533469 0.520652
0.050794 0.445933 0.508362
0.050794 0.497066 0.526345
0.051313 0.562825 0.540606
0.206657 0.629269 0.547836
0.488851 0.661557 0.549063
0.676679 0.679074 0.543775
0.798015 0.681291 0.533292
0.877028 0.673382 0.519962
0.050794 0.500631 0.521218
0.050794 0.545675 0.528581
0.050794 0.606157 0.535042
0.092486 0.683640 0.538957
0.428259 0.734853 0.540385
0.653379 0.766859 0.534685
0.796619 0.782757 0.523702
0.891785 0.785599 0.509291
0.050794 0.519638 0.518228
0.050794 0.561325 0.522957
0.050794 0.619970 0.527912
0.058068 0.698053 0.530206
0.352578 0.765394 0.530978
0.617138 0.807650 0.525233
0.782551 0.835388 0.513478
0.892927 0.848346 0.497397
0.050794 0.050794 0.416590
0.055924 0.050794 0.435149
0.156490 0.050794 0.456489
0.277417 0.050794 0.475962
0.408788 0.050794 0.491024
0.524251 0.050794 0.500973
0.610595 0.050794 0.505880
0.664847 0.050794 0.508598
0.050794 0.067435 0.453138
0.056839 0.097096 0.472590
0.172951 0.110850 0.495145
0.308584 0.117479 0.516210
0.452062 0.108398 0.532028
0.576448 0.079656 0.541980
0.665884 0.057689 0.546651
0.719587 0.054622 0.548883
0.050794 0.158427 0.495790
0.050924 0.189366 0.516189
0.137650 0.226852 0.539835
0.320685 0.246080 0.562438
0.486006 0.254156 0.579194
0.622469 0.252352 0.589629
0.718156 0.242187 0.594400
0.774285 0.229281 0.594971
0.050794 0.258921 0.538263
0.050794 0.294927 0.559962
0.069146 0.349921 0.584884
0.314035 0.388091 0.608359
0.513619 0.408504 0.625957
0.663805 0.416785 0.635936
0.757962 0.404907 0.633568
0.813037 0.385825 0.625998
0.050794 0.367143 0.575488
0.050794 0.411361 0.597368
0.053487 0.476601 0.622825
0.261341 0.539798 0.645914
0.508807 0.561142 0.657412
0.671060 0.565378 0.659990
0.777464 0.555497 0.655695
0.844918 0.539153 0.648170
0.050794 0.454591 0.602741
0.050794 0.504287 0.623546
0.050857 0.565942 0.642326
0.144682 0.634790 0.657044
0.457326 0.670108 0.667882
0.658644 0.688665 0.671979
0.786211 0.691802 0.669563
0.869385 0.684553 0.662747
0.050794 0.509146 0.615704
0.050794 0.552046 0.628307
0.050794 0.611157 0.642677
0.059232 0.689067 0.656165
0.376169 0.747892 0.668276
0.628710 0.780928 0.673675
0.780742 0.797990 0.672775
0.880888 0.801863 0.666829
0.050794 0.529442 0.615747
0.050794 0.570046 0.626652
0.050794 0.627566 0.639606
0.052617 0.705030 0.652153
0.280143 0.780846 0.664139
0.586009 0.825316 0.670719
0.763370 0.854411 0.670828
0.879537 0.868649 0.665565
0.050794 0.050794 0.466848
0.052582 0.050794 0.486565
0.153028 0.050794 0.509876
0.280124 0.050794 0.532083
0.414644 0.050794 0.549824
0.532152 0.050794 0.562031
0.619867 0.050794 0.568585
0.674699 0.050794 0.572159
0.050794 0.064407 0.503391
0.054377 0.096656 0.524127
0.170769 0.113074 0.548812
0.310866 0.119653 0.572481
0.456873 0.110683 0.590937
0.582965 0.081861 0.603410
0.673349 0.058652 0.609547
0.727890 0.054978 0.612840
0.050794 0.160928 0.546158
0.050822 0.192510 0.567981
0.127857 0.232996 0.594108
0.318361 0.252542 0.619126
0.487073 0.260855 0.638828
0.625360 0.259294 0.651889
0.721763 0.248506 0.657924
0.777590 0.232083 0.658607
0.050794 0.262303 0.589326
0.050794 0.298338 0.612245
0.064660 0.354068 0.639474
0.304077 0.394349 0.665895
0.509668 0.414494 0.686384
0.659173 0.419488 0.697857
0.754107 0.405922 0.698643
0.811845 0.386040 0.695075
0.050794 0.370657 0.627406
0.050794 0.414468 0.650583
0.051983 0.479105 0.678192
0.236423 0.540480 0.703057
0.491933 0.560036 0.718866
0.659711 0.564154 0.727253
0.770059 0.555225 0.728851
0.840897 0.538983 0.726255
0.050794 0.458521 0.655150
0.050794 0.504846 0.676323
0.050794 0.562778 0.698370
0.103266 0.632455 0.718878
0.431360 0.670448 0.736724
0.643000 0.689567 0.747795
0.775702 0.693560 0.751944
0.862780 0.686893 0.751020
0.050794 0.511678 0.668203
0.050794 0.552913 0.684614
0.050794 0.610324 0.704563
0.055052 0.686877 0.724799
0.329485 0.751208 0.744246
0.607000 0.785135 0.757805
0.766567 0.803353 0.764512
0.871485 0.807918 0.765477
0.050794 0.533748 0.671966
0.050794 0.572896 0.686843
0.050794 0.629331 0.705616
0.050890 0.705373 0.725337
0.222612 0.785938 0.745050
0.558203 0.832869 0.760507
0.746325 0.863552 0.769198
0.868125 0.878788 0.771846
0.050794 0.050794 0.502225
0.060796 0.051952 0.522738
0.170390 0.052385 0.546938
0.297372 0.052300 0.570680
0.433739 0.051026 0.589767
0.552719 0.050794 0.603096
0.640823 0.050794 0.610207
0.695934 0.050794 0.614148
0.050794 0.086943 0.535262
0.052639 0.121010 0.556597
0.163094 0.145231 0.582163
0.314564 0.154239 0.607123
0.465491 0.150349 0.627033
0.594587 0.132320 0.640872
0.687696 0.102199 0.648047
0.744685 0.082176 0.651763
0.050794 0.178149 0.574365
0.050817 0.209888 0.596714
0.112091 0.254062 0.623683
0.316546 0.275731 0.649890
0.489967 0.285759 0.670868
0.630746 0.286519 0.685244
0.728508 0.277635 0.692040
0.783436 0.258616 0.692566
0.050794 0.273916 0.614606
0.050794 0.310384 0.637786
0.060824 0.366389 0.665661
0.296876 0.409849 0.693288
0.508164 0.430797 0.715132
0.655465 0.432121 0.726802
0.751926 0.417707 0.729648
0.812518 0.398574 0.728576
0.050794 0.377188 0.650549
0.050794 0.420841 0.674101
0.051446 0.484754 0.702038
0.219544 0.542923 0.726894
0.477940 0.561776 0.744847
0.650503 0.566439 0.756460
0.763999 0.558653 0.761211
0.837951 0.543019 0.761666
0.050794 0.462617 0.677372
0.050794 0.505270 0.698001
0.050794 0.559790 0.720959
0.083840 0.628778 0.743884
0.410653 0.668793 0.764870
0.629808 0.688083 0.779508
0.766603 0.692954 0.787352
0.857089 0.686847 0.789831
0.050794 0.512907 0.690338
0.050794 0.552517 0.707905
0.050794 0.608002 0.729870
0.053467 0.682439 0.752862
0.298319 0.749033 0.775609
0.590037 0.783658 0.792871
0.755248 0.802668 0.803609
0.864049 0.807515 0.808562
0.050794 0.536035 0.695790
0.050794 0.573598 0.711826
0.050794 0.628460 0.732900
0.050794 0.702393 0.755422
0.186331 0.784352 0.778578
0.536955 0.833097 0.798206
0.733124 0.864734 0.811557
0.859149 0.880709 0.818268
