assets/luts/Everyday_EverydayCC.cube
# GSG LUTs 1.0
# Copyright (c) 2016-2020 Greyscalegorilla
# See EULA for licensing and distribution information
# Converted by Briz LUT Converter
LUT_3D_SIZE 32
0.005617 0.009035 0.007570
0.012683 0.010036 0.007578
0.020135 0.010839 0.007799
0.029785 0.012375 0.007570
0.040466 0.014140 0.007539
0.053732 0.015944 0.007287
0.069124 0.017866 0.006987
0.091039 0.019378 0.006373
0.116499 0.020828 0.005365
0.141959 0.022159 0.004214
0.167655 0.023514 0.002781
0.194218 0.024176 0.001607
0.221726 0.023892 0.000599
0.251140 0.021907 0.000000
0.282760 0.017905 0.000000
0.315467 0.012438 0.000000
0.349120 0.005632 0.000000
0.380503 0.001772 0.000000
0.409713 0.000654 0.000000
0.436457 0.000095 0.000000
0.460877 0.000000 0.000000
0.484162 0.000000 0.000000
0.506582 0.000000 0.000000
0.527315 0.000000 0.000000
0.546158 0.000000 0.000000
0.562984 0.000000 0.000000
0.577116 0.000000 0.000000
0.589878 0.000000 0.000000
0.600496 0.000000 0.000000
0.610603 0.000000 0.000000
0.619032 0.000000 0.000000
0.627106 0.000000 0.000000
0.004860 0.013321 0.008571
0.012439 0.014589 0.008571
0.020207 0.015890 0.008555
0.030835 0.017694 0.008334
0.042045 0.019759 0.008295
0.055877 0.022082 0.008042
0.072042 0.024518 0.007688
0.094676 0.026550 0.006877
0.120728 0.028520 0.005806
0.146968 0.030372 0.004472
0.173366 0.032247 0.002954
0.200541 0.033430 0.001612
0.228730 0.033666 0.000599
0.258769 0.032198 0.000000
0.291047 0.028716 0.000000
0.324278 0.023530 0.000000
0.358581 0.016724 0.000000
0.390746 0.010929 0.000000
0.420886 0.006021 0.000000
0.448356 0.002794 0.000000
0.473136 0.001198 0.000000
0.496680 0.000407 0.000000
0.519178 0.000071 0.000000
0.539911 0.000000 0.000000
0.558571 0.000000 0.000000
0.575344 0.000000 0.000000
0.589469 0.000000 0.000000
0.602229 0.000000 0.000000
0.612628 0.000000 0.000000
0.622703 0.000000 0.000000
0.630895 0.000000 0.000000
0.638962 0.000000 0.000000
0.004057 0.017811 0.009343
0.012156 0.019340 0.009343
0.020446 0.020932 0.009343
0.031648 0.023256 0.009319
0.043639 0.025826 0.009065
0.058216 0.028634 0.008760
0.074931 0.031406 0.008208
0.098156 0.033959 0.007393
0.124988 0.036449 0.006306
0.152013 0.038821 0.004887
0.179203 0.041217 0.003190
0.207069 0.042920 0.001765
0.235876 0.043677 0.000599
0.266497 0.042643 0.000000
0.299167 0.039676 0.000000
0.333033 0.034943 0.000000
0.367987 0.028218 0.000000
0.400948 0.020664 0.000000
0.432103 0.012245 0.000000
0.460157 0.006461 0.000000
0.485372 0.003149 0.000000
0.509116 0.001292 0.000000
0.531657 0.000504 0.000000
0.552416 0.000195 0.000000
0.571263 0.000081 0.000000
0.588089 0.000012 0.000000
0.602030 0.000000 0.000000
0.614741 0.000000 0.000000
0.625137 0.000000 0.000000
0.634977 0.000000 0.000000
0.643153 0.000000 0.000000
0.651219 0.000000 0.000000
0.002521 0.025397 0.010375
0.011141 0.027217 0.010375
0.020005 0.029307 0.010373
0.032204 0.032131 0.010327
0.045000 0.035037 0.010044
0.060412 0.038402 0.009540
0.078084 0.041890 0.008984
0.102113 0.044978 0.008093
0.129744 0.047970 0.006745
0.157616 0.050863 0.005073
0.185749 0.053779 0.003206
0.214315 0.055993 0.001765
0.243755 0.057265 0.000599
0.275147 0.056968 0.000000
0.308481 0.054925 0.000000
0.342891 0.051240 0.000000
0.378495 0.045841 0.000000
0.412212 0.039236 0.000000
0.443991 0.031555 0.000000
0.472706 0.024857 0.000000
0.498545 0.018951 0.000000
0.522833 0.013166 0.000000
0.546065 0.007515 0.000000
0.567241 0.003356 0.000000
0.586178 0.001384 0.000000
0.603028 0.000226 0.000000
0.617145 0.000004 0.000000
0.629690 0.000000 0.000000
0.640035 0.000000 0.000000
0.649681 0.000000 0.000000
0.657821 0.000000 0.000000
0.665887 0.000000 0.000000
0.000882 0.033400 0.011635
0.009931 0.035767 0.011635
0.019426 0.038194 0.011617
0.032462 0.041556 0.011336
0.046328 0.045154 0.011052
0.062709 0.049034 0.010543
0.081052 0.053053 0.009912
0.106122 0.056763 0.008768
0.134737 0.060105 0.007184
0.163413 0.063509 0.005316
0.192337 0.066913 0.003346
0.221704 0.069560 0.001733
0.251925 0.071303 0.000579
0.284005 0.071761 0.000000
0.317991 0.070617 0.000000
0.353168 0.068184 0.000000
0.389422 0.064298 0.000000
0.423675 0.059224 0.000000
0.455974 0.052975 0.000000
0.485209 0.045680 0.000000
0.511711 0.037408 0.000000
0.536726 0.027921 0.000000
0.560517 0.017361 0.000000
0.582204 0.009517 0.000000
0.601466 0.005358 0.000000
0.618577 0.003025 0.000000
0.632584 0.002196 0.000000
0.645126 0.001837 0.000000
0.655304 0.001540 0.000000
0.665138 0.001247 0.000000
0.673109 0.001076 0.000000
0.681169 0.000914 0.000000
0.000205 0.042806 0.012895
0.008906 0.045953 0.012895
0.017939 0.049144 0.012864
0.032041 0.053003 0.012380
0.047180 0.056888 0.012060
0.064636 0.061220 0.011510
0.084020 0.065532 0.010627
0.110130 0.069560 0.009302
0.139786 0.073412 0.007623
0.169442 0.077245 0.005483
0.199242 0.080950 0.003238
0.229549 0.084035 0.001495
0.260561 0.086328 0.000449
0.293397 0.087371 0.000000
0.328164 0.087130 0.000000
0.364018 0.085704 0.000000
0.400943 0.082988 0.000000
0.435838 0.079250 0.000000
0.468681 0.074563 0.000000
0.498429 0.068616 0.000000
0.525410 0.061436 0.000000
0.550735 0.052830 0.000000
0.574801 0.042952 0.000000
0.596888 0.034624 0.000000
0.616485 0.028478 0.000000
0.633897 0.023740 0.000000
0.648205 0.020389 0.000000
0.661048 0.017333 0.000000
0.671492 0.014540 0.000000
0.681350 0.011820 0.000000
0.689565 0.010202 0.000000
0.697633 0.008657 0.000000
0.000000 0.053488 0.014108
0.007676 0.057464 0.014061
0.015811 0.061466 0.014027
0.030929 0.065825 0.013478
0.047327 0.070019 0.012962
0.066066 0.074686 0.012297
0.086628 0.079439 0.011223
0.113877 0.083821 0.009765
0.144671 0.088141 0.007838
0.175438 0.092329 0.005428
0.206229 0.096521 0.002906
0.237452 0.100070 0.001285
0.269334 0.102782 0.000420
0.302884 0.104451 0.000000
0.338410 0.104991 0.000000
0.375018 0.104467 0.000000
0.412724 0.102922 0.000000
0.448288 0.100598 0.000000
0.481791 0.097423 0.000000
0.511991 0.093298 0.000000
0.539233 0.088283 0.000000
0.564710 0.081921 0.000000
0.589098 0.074466 0.000000
0.611374 0.066866 0.000000
0.631349 0.059374 0.000000
0.649195 0.052424 0.000000
0.663965 0.046233 0.000000
0.677279 0.040395 0.000000
0.687967 0.035039 0.000000
0.697890 0.029974 0.000000
0.706306 0.026777 0.000000
0.714380 0.023750 0.000000
0.000000 0.068463 0.015006
0.005424 0.073535 0.014761
0.011489 0.078549 0.014660
0.027309 0.083485 0.013917
0.044794 0.088249 0.013250
0.065029 0.093405 0.012224
0.087467 0.098513 0.010970
0.116334 0.103416 0.009081
0.148732 0.108256 0.006902
0.180946 0.112908 0.004499
0.212937 0.117480 0.002176
0.245303 0.121619 0.000835
0.278174 0.125000 0.000266
0.312780 0.127329 0.000000
0.349022 0.128675 0.000000
0.386334 0.129084 0.000000
0.424821 0.128653 0.000000
0.461104 0.127576 0.000000
0.495224 0.125703 0.000000
0.525846 0.123120 0.000000
0.553370 0.119812 0.000000
0.579241 0.115270 0.000000
0.603812 0.109794 0.000000
0.626438 0.103821 0.000000
0.646682 0.097387 0.000000
0.664616 0.091082 0.000000
0.679562 0.085367 0.000000
0.693080 0.079986 0.000000
0.703793 0.075035 0.000000
0.713951 0.070368 0.000000
0.722330 0.067272 0.000000
0.730403 0.064469 0.000000
0.000000 0.085793 0.015511
0.002759 0.092032 0.015194
0.006376 0.098070 0.014845
0.022121 0.103794 0.014000
0.040232 0.109363 0.012918
0.062391 0.115049 0.011711
0.087215 0.120730 0.010039
0.118070 0.126154 0.007847
0.152290 0.131515 0.005294
0.186130 0.136705 0.002999
0.219646 0.141822 0.001270
0.253245 0.146461 0.000298
0.287198 0.150501 0.000111
0.322765 0.153610 0.000000
0.359911 0.155794 0.000000
0.398106 0.157174 0.000000
0.437374 0.157654 0.000000
0.474230 0.157600 0.000000
0.508923 0.156962 0.000000
0.540107 0.155616 0.000000
0.568045 0.153544 0.000000
0.594221 0.150664 0.000000
0.619053 0.146985 0.000000
0.641892 0.142862 0.000000
0.662233 0.138559 0.000000
0.680334 0.134517 0.000000
0.695317 0.130867 0.000000
0.708835 0.127392 0.000000
0.719605 0.124157 0.000000
0.729887 0.121182 0.000000
0.738152 0.119290 0.000000
0.746221 0.117468 0.000000
0.000000 0.103903 0.015873
0.001046 0.110853 0.015296
0.003049 0.117724 0.014687
0.016966 0.124458 0.013582
0.033590 0.131076 0.012207
0.057768 0.137374 0.010509
0.085597 0.143741 0.008518
0.119030 0.149743 0.006097
0.155413 0.155624 0.003560
0.191180 0.161366 0.001724
0.226377 0.167069 0.000566
0.261351 0.172241 0.000000
0.296553 0.176970 0.000000
0.333131 0.180831 0.000000
0.371194 0.183672 0.000000
0.410210 0.185821 0.000000
0.450257 0.187175 0.000000
0.487856 0.187962 0.000000
0.523193 0.188260 0.000000
0.554815 0.187881 0.000000
0.583275 0.186777 0.000000
0.609840 0.184988 0.000000
0.634932 0.182592 0.000000
0.657897 0.179729 0.000000
0.678451 0.176879 0.000000
0.696666 0.174074 0.000000
0.711722 0.171823 0.000000
0.725251 0.169488 0.000000
0.736121 0.167334 0.000000
0.746311 0.165440 0.000000
0.754676 0.164211 0.000000
0.762748 0.163094 0.000000
0.000000 0.122793 0.015794
0.000342 0.130182 0.014954
0.001315 0.137531 0.014004
0.011899 0.145589 0.012565
0.025390 0.153514 0.010908
0.051442 0.160564 0.008771
0.082652 0.167552 0.006404
0.118989 0.174213 0.003982
0.158031 0.180635 0.001876
0.195993 0.186906 0.000739
0.232981 0.193119 0.000224
0.269567 0.199013 0.000000
0.306095 0.204268 0.000000
0.343738 0.208788 0.000000
0.382705 0.212309 0.000000
0.422597 0.215201 0.000000
0.463425 0.217295 0.000000
0.501709 0.218768 0.000000
0.537702 0.219768 0.000000
0.569918 0.220121 0.000000
0.598786 0.219767 0.000000
0.625639 0.218759 0.000000
0.651047 0.217144 0.000000
0.674237 0.215190 0.000000
0.695031 0.213104 0.000000
0.713506 0.211061 0.000000
0.728757 0.209314 0.000000
0.742314 0.207555 0.000000
0.753027 0.205719 0.000000
0.763215 0.204175 0.000000
0.771337 0.203059 0.000000
0.779322 0.202135 0.000000
0.000000 0.142550 0.015109
0.000000 0.150296 0.014003
0.000415 0.158270 0.012616
0.007128 0.167326 0.010673
0.016916 0.176581 0.008689
0.044010 0.184563 0.006409
0.077833 0.192299 0.004131
0.117332 0.199551 0.002205
0.159525 0.206536 0.000754
0.199965 0.213475 0.000112
0.238890 0.220297 0.000000
0.277233 0.226860 0.000000
0.315097 0.232831 0.000000
0.353984 0.238031 0.000000
0.393918 0.242293 0.000000
0.434679 0.245838 0.000000
0.476333 0.248628 0.000000
0.515397 0.250834 0.000000
0.552025 0.252525 0.000000
0.584814 0.253521 0.000000
0.614180 0.253828 0.000000
0.641411 0.253511 0.000000
0.667163 0.252587 0.000000
0.690577 0.251324 0.000000
0.711611 0.249868 0.000000
0.730347 0.248429 0.000000
0.745646 0.247079 0.000000
0.759203 0.245732 0.000000
0.769681 0.243564 0.000000
0.779291 0.241574 0.000000
0.786880 0.239682 0.000000
0.794336 0.237796 0.000000
0.000000 0.163346 0.013502
0.000000 0.171510 0.012042
0.000173 0.179803 0.010390
0.002976 0.190048 0.008112
0.008954 0.200364 0.005771
0.035819 0.209498 0.003639
0.070833 0.218094 0.001851
0.113447 0.226091 0.000763
0.159559 0.233694 0.000222
0.203000 0.241297 0.000000
0.244090 0.248870 0.000000
0.284251 0.256149 0.000000
0.323596 0.262901 0.000000
0.363639 0.268841 0.000000
0.404614 0.273801 0.000000
0.446370 0.278046 0.000000
0.488934 0.281567 0.000000
0.528825 0.284468 0.000000
0.566142 0.286777 0.000000
0.599530 0.288430 0.000000
0.629339 0.289379 0.000000
0.657035 0.289616 0.000000
0.683083 0.289212 0.000000
0.706786 0.288470 0.000000
0.728024 0.287510 0.000000
0.746922 0.286381 0.000000
0.762251 0.285344 0.000000
0.775726 0.283746 0.000000
0.785509 0.280764 0.000000
0.794427 0.277601 0.000000
0.801088 0.274019 0.000000
0.807602 0.270503 0.000000
0.000000 0.185797 0.010918
0.000000 0.194327 0.009048
0.000041 0.203008 0.007173
0.000695 0.213986 0.005217
0.004084 0.225185 0.003275
0.027586 0.235588 0.001704
0.060232 0.245453 0.000426
0.105717 0.254313 0.000000
0.157295 0.262697 0.000000
0.204472 0.271110 0.000000
0.248035 0.279488 0.000000
0.290152 0.287446 0.000000
0.331027 0.294979 0.000000
0.372463 0.301680 0.000000
0.414584 0.307415 0.000000
0.457365 0.312444 0.000000
0.500893 0.316721 0.000000
0.541686 0.320402 0.000000
0.579784 0.323492 0.000000
0.613769 0.325770 0.000000
0.644080 0.327337 0.000000
0.672227 0.328147 0.000000
0.698763 0.328337 0.000000
0.722536 0.327840 0.000000
0.743589 0.326668 0.000000
0.762110 0.325177 0.000000
0.777017 0.323468 0.000000
0.790027 0.321048 0.000000
0.799346 0.317143 0.000000
0.807940 0.313141 0.000000
0.814247 0.308638 0.000000
0.820403 0.304242 0.000000
0.000000 0.209744 0.007137
0.000000 0.218795 0.005010
0.000017 0.227987 0.003046
0.000281 0.239343 0.001910
0.002423 0.251077 0.001136
0.019497 0.262986 0.000583
0.045719 0.274548 0.000108
0.093865 0.284481 0.000000
0.152367 0.293646 0.000000
0.204259 0.302881 0.000000
0.250456 0.312175 0.000000
0.294772 0.321028 0.000000
0.337342 0.329412 0.000000
0.380301 0.336954 0.000000
0.423724 0.343487 0.000000
0.467684 0.349288 0.000000
0.512253 0.354419 0.000000
0.553949 0.358880 0.000000
0.592891 0.362751 0.000000
0.627568 0.365656 0.000000
0.658412 0.367742 0.000000
0.686982 0.369073 0.000000
0.713837 0.369805 0.000000
0.737587 0.369173 0.000000
0.758127 0.367312 0.000000
0.775786 0.364635 0.000000
0.789765 0.361295 0.000000
0.801973 0.357413 0.000000
0.811194 0.352849 0.000000
0.819788 0.348219 0.000000
0.826339 0.343570 0.000000
0.832644 0.339029 0.000000
0.000000 0.233692 0.003947
0.000000 0.243259 0.002174
0.000000 0.252857 0.000708
0.000000 0.264732 0.000221
0.001241 0.277055 0.000000
0.011727 0.290205 0.000000
0.031202 0.303293 0.000000
0.081271 0.314466 0.000000
0.146154 0.324625 0.000000
0.202607 0.334728 0.000000
0.251913 0.344846 0.000000
0.298675 0.354618 0.000000
0.342980 0.363915 0.000000
0.387549 0.372310 0.000000
0.432273 0.379624 0.000000
0.477469 0.386205 0.000000
0.523201 0.392116 0.000000
0.565857 0.397359 0.000000
0.605657 0.401941 0.000000
0.640789 0.405278 0.000000
0.671629 0.407412 0.000000
0.699950 0.408573 0.000000
0.726281 0.408748 0.000000
0.749685 0.407639 0.000000
0.769945 0.405189 0.000000
0.787406 0.401923 0.000000
0.801313 0.397901 0.000000
0.813472 0.393415 0.000000
0.822900 0.388763 0.000000
0.831628 0.383867 0.000000
0.838430 0.379184 0.000000
0.844980 0.374524 0.000000
0.000000 0.257639 0.001426
0.000000 0.267596 0.000694
0.000000 0.277593 0.000229
0.000000 0.290000 0.000107
0.000444 0.303039 0.000000
0.004169 0.317381 0.000000
0.016480 0.331770 0.000000
0.067959 0.344216 0.000000
0.138535 0.355545 0.000000
0.199509 0.366709 0.000000
0.252344 0.377649 0.000000
0.301740 0.388287 0.000000
0.347949 0.398413 0.000000
0.394128 0.407666 0.000000
0.440209 0.415760 0.000000
0.486714 0.423183 0.000000
0.533617 0.429940 0.000000
0.577375 0.435894 0.000000
0.618070 0.441127 0.000000
0.653365 0.444574 0.000000
0.683700 0.446204 0.000000
0.710944 0.446373 0.000000
0.735974 0.445108 0.000000
0.758731 0.442999 0.000000
0.778991 0.440159 0.000000
0.796887 0.436836 0.000000
0.811527 0.433131 0.000000
0.824466 0.429145 0.000000
0.834447 0.424672 0.000000
0.843577 0.420024 0.000000
0.850648 0.415601 0.000000
0.857584 0.410950 0.000000
0.000000 0.279712 0.000110
0.000000 0.289937 0.000000
0.000000 0.300454 0.000000
0.000000 0.313382 0.000000
0.000028 0.326987 0.000000
0.000256 0.342215 0.000000
0.008789 0.357542 0.000000
0.059750 0.371185 0.000000
0.131769 0.383793 0.000000
0.195518 0.396012 0.000000
0.252017 0.407728 0.000000
0.304094 0.419135 0.000000
0.352062 0.430042 0.000000
0.399769 0.440019 0.000000
0.447144 0.448817 0.000000
0.494496 0.456818 0.000000
0.541748 0.463864 0.000000
0.585627 0.469834 0.000000
0.626103 0.474887 0.000000
0.661203 0.478113 0.000000
0.691433 0.479585 0.000000
0.718512 0.479409 0.000000
0.743347 0.477862 0.000000
0.766160 0.475546 0.000000
0.786873 0.472861 0.000000
0.805513 0.469719 0.000000
0.820936 0.466466 0.000000
0.834773 0.463001 0.000000
0.845324 0.458955 0.000000
0.855100 0.454707 0.000000
0.862585 0.450423 0.000000
0.869786 0.446162 0.000000
0.000000 0.299846 0.000000
0.000000 0.310478 0.000000
0.000000 0.321387 0.000000
0.000000 0.334968 0.000000
0.000000 0.349075 0.000000
0.000000 0.364700 0.000000
0.007930 0.380645 0.000000
0.056403 0.395442 0.000000
0.125889 0.409481 0.000000
0.190777 0.422669 0.000000
0.250916 0.435129 0.000000
0.305799 0.447242 0.000000
0.355420 0.458875 0.000000
0.404583 0.469500 0.000000
0.453145 0.479014 0.000000
0.500859 0.487239 0.000000
0.547705 0.493952 0.000000
0.590702 0.499307 0.000000
0.629877 0.503369 0.000000
0.664516 0.506172 0.000000
0.695043 0.507716 0.000000
0.722774 0.507941 0.000000
0.748490 0.507104 0.000000
0.772149 0.505487 0.000000
0.793736 0.503249 0.000000
0.813270 0.500709 0.000000
0.829614 0.498005 0.000000
0.844350 0.495060 0.000000
0.855597 0.491634 0.000000
0.866010 0.487917 0.000000
0.874023 0.483941 0.000000
0.881634 0.480050 0.000000
0.000000 0.319012 0.000000
0.000000 0.330011 0.000000
0.000000 0.341339 0.000000
0.000000 0.355395 0.000000
0.000000 0.370010 0.000000
0.000000 0.386066 0.000000
0.007404 0.402629 0.000000
0.052686 0.418547 0.000000
0.118667 0.433901 0.000000
0.184574 0.448013 0.000000
0.248758 0.461051 0.000000
0.306121 0.473583 0.000000
0.356693 0.485436 0.000000
0.406224 0.496097 0.000000
0.454564 0.505552 0.000000
0.502003 0.513600 0.000000
0.548483 0.520154 0.000000
0.591274 0.525317 0.000000
0.630558 0.529198 0.000000
0.665663 0.532138 0.000000
0.696940 0.534088 0.000000
0.725671 0.534883 0.000000
0.752337 0.534672 0.000000
0.776882 0.533793 0.000000
0.799392 0.532176 0.000000
0.819861 0.530250 0.000000
0.837227 0.527960 0.000000
0.852784 0.525512 0.000000
0.864811 0.522472 0.000000
0.875909 0.519261 0.000000
0.884307 0.515659 0.000000
0.892434 0.512033 0.000000
0.000000 0.337351 0.000000
0.000000 0.348770 0.000000
0.000000 0.360450 0.000000
0.000000 0.374791 0.000000
0.000000 0.389926 0.000000
0.000000 0.406477 0.000000
0.006818 0.423526 0.000000
0.048451 0.440542 0.000000
0.110115 0.457092 0.000000
0.176922 0.472027 0.000000
0.245531 0.485666 0.000000
0.305172 0.498364 0.000000
0.356005 0.509916 0.000000
0.404934 0.520079 0.000000
0.451761 0.528645 0.000000
0.498352 0.536193 0.000000
0.544653 0.542747 0.000000
0.587986 0.548307 0.000000
0.628577 0.552900 0.000000
0.664991 0.556426 0.000000
0.697573 0.559059 0.000000
0.727415 0.560571 0.000000
0.755034 0.561043 0.000000
0.780522 0.560799 0.000000
0.804048 0.559801 0.000000
0.825558 0.558417 0.000000
0.843833 0.556568 0.000000
0.860186 0.554488 0.000000
0.872994 0.551862 0.000000
0.884872 0.549015 0.000000
0.893715 0.545680 0.000000
0.902517 0.542314 0.000000
0.000000 0.354177 0.000000
0.000000 0.365943 0.000000
0.000000 0.377894 0.000000
0.000000 0.392658 0.000000
0.000000 0.408164 0.000000
0.000000 0.425222 0.000000
0.005977 0.442720 0.000000
0.042440 0.460321 0.000000
0.097950 0.477572 0.000000
0.164802 0.492802 0.000000
0.237749 0.506341 0.000000
0.299759 0.518870 0.000000
0.350925 0.530277 0.000000
0.399770 0.540311 0.000000
0.446032 0.548690 0.000000
0.492365 0.556299 0.000000
0.538878 0.563194 0.000000
0.583163 0.569377 0.000000
0.625255 0.574885 0.000000
0.663108 0.579310 0.000000
0.697218 0.582754 0.000000
0.728220 0.585046 0.000000
0.756735 0.586299 0.000000
0.783216 0.586772 0.000000
0.807783 0.586337 0.000000
0.830334 0.585606 0.000000
0.849576 0.584310 0.000000
0.866881 0.582674 0.000000
0.880341 0.580558 0.000000
0.892985 0.578150 0.000000
0.902364 0.575246 0.000000
0.911773 0.572311 0.000000
0.000000 0.369617 0.000000
0.000000 0.381649 0.000000
0.000000 0.394032 0.000000
0.000000 0.409131 0.000000
0.000000 0.424907 0.000000
0.000000 0.442306 0.000000
0.004867 0.460164 0.000000
0.034592 0.478183 0.000000
0.082092 0.495666 0.000000
0.148114 0.510579 0.000000
0.225462 0.523295 0.000000
0.289932 0.535366 0.000000
0.341699 0.546772 0.000000
0.391057 0.557058 0.000000
0.437865 0.566133 0.000000
0.484768 0.574492 0.000000
0.532029 0.582087 0.000000
0.577370 0.589108 0.000000
0.620857 0.595520 0.000000
0.660238 0.600913 0.000000
0.695909 0.605347 0.000000
0.728249 0.608482 0.000000
0.757681 0.610515 0.000000
0.785130 0.611769 0.000000
0.810604 0.612053 0.000000
0.834156 0.611946 0.000000
0.854439 0.611331 0.000000
0.872785 0.610394 0.000000
0.887144 0.608821 0.000000
0.900415 0.607096 0.000000
0.910488 0.604555 0.000000
0.920249 0.601961 0.000000
0.000000 0.382748 0.000000
0.000000 0.395218 0.000000
0.000000 0.407744 0.000000
0.000000 0.422915 0.000000
0.000000 0.438741 0.000000
0.000000 0.456027 0.000000
0.003415 0.473784 0.000000
0.024341 0.491788 0.000000
0.061467 0.509307 0.000000
0.126653 0.524033 0.000000
0.210023 0.536350 0.000000
0.277969 0.548405 0.000000
0.330864 0.560116 0.000000
0.381180 0.570905 0.000000
0.428851 0.580899 0.000000
0.476635 0.590077 0.000000
0.524525 0.598453 0.000000
0.570744 0.606293 0.000000
0.615540 0.613623 0.000000
0.656407 0.619916 0.000000
0.693639 0.625321 0.000000
0.727247 0.629326 0.000000
0.757693 0.632268 0.000000
0.786027 0.634355 0.000000
0.812581 0.635420 0.000000
0.837053 0.636036 0.000000
0.858341 0.636036 0.000000
0.877728 0.635851 0.000000
0.892964 0.634830 0.000000
0.906956 0.633862 0.000000
0.917630 0.631789 0.000000
0.928024 0.629824 0.000000
0.000000 0.393588 0.000000
0.000000 0.406190 0.000000
0.000000 0.418886 0.000000
0.000000 0.433863 0.000000
0.000000 0.449412 0.000000
0.000000 0.465821 0.000000
0.001634 0.482648 0.000000
0.011625 0.500338 0.000000
0.035627 0.518004 0.000000
0.100215 0.532876 0.000000
0.191721 0.545673 0.000000
0.264627 0.558163 0.000000
0.319335 0.570443 0.000000
0.370973 0.581962 0.000000
0.419539 0.592773 0.000000
0.468058 0.602732 0.000000
0.516371 0.611888 0.000000
0.563494 0.620509 0.000000
0.609482 0.628657 0.000000
0.651609 0.635873 0.000000
0.690330 0.642171 0.000000
0.725157 0.647107 0.000000
0.756644 0.651070 0.000000
0.785972 0.654011 0.000000
0.813599 0.656003 0.000000
0.839075 0.657443 0.000000
0.861393 0.658170 0.000000
0.881655 0.658591 0.000000
0.897680 0.658270 0.000000
0.912630 0.657898 0.000000
0.923852 0.656534 0.000000
0.934830 0.655158 0.000000
0.000000 0.402544 0.000000
0.000000 0.414945 0.000000
0.000000 0.427487 0.000000
0.000000 0.442185 0.000000
0.000000 0.457250 0.000000
0.000000 0.472984 0.000000
0.000314 0.489024 0.000000
0.002260 0.506435 0.000000
0.016486 0.524092 0.000000
0.079131 0.539419 0.000000
0.174419 0.552839 0.000000
0.250384 0.565983 0.000000
0.307152 0.578805 0.000000
0.360392 0.590984 0.000000
0.409877 0.602575 0.000000
0.458963 0.613220 0.000000
0.507667 0.623055 0.000000
0.555617 0.632348 0.000000
0.602671 0.641188 0.000000
0.646114 0.649218 0.000000
0.686120 0.656319 0.000000
0.722161 0.662206 0.000000
0.754752 0.667070 0.000000
0.785121 0.670807 0.000000
0.813636 0.673623 0.000000
0.840109 0.675856 0.000000
0.863302 0.677198 0.000000
0.884526 0.678320 0.000000
0.901535 0.678594 0.000000
0.917336 0.678933 0.000000
0.929098 0.678155 0.000000
0.940596 0.677301 0.000000
0.000000 0.409477 0.000000
0.000000 0.421194 0.000000
0.000000 0.433053 0.000000
0.000000 0.447063 0.000000
0.000000 0.461423 0.000000
0.000000 0.476695 0.000000
0.000055 0.492567 0.000000
0.000412 0.509764 0.000000
0.011853 0.527462 0.000000
0.069846 0.543276 0.000000
0.160104 0.557589 0.000000
0.235037 0.571352 0.000000
0.294494 0.584561 0.000000
0.349433 0.597281 0.000000
0.399634 0.609441 0.000000
0.449243 0.620731 0.000000
0.498232 0.631111 0.000000
0.546668 0.640961 0.000000
0.594670 0.650441 0.000000
0.639337 0.659166 0.000000
0.680764 0.667047 0.000000
0.718162 0.673747 0.000000
0.751585 0.679262 0.000000
0.782876 0.683720 0.000000
0.812237 0.687158 0.000000
0.839528 0.689960 0.000000
0.863855 0.692004 0.000000
0.886144 0.693720 0.000000
0.903824 0.694706 0.000000
0.920390 0.695438 0.000000
0.932888 0.695368 0.000000
0.945118 0.695041 0.000000
0.000000 0.415605 0.000000
0.000000 0.426535 0.000000
0.000000 0.437422 0.000000
0.000000 0.450891 0.000000
0.000000 0.464914 0.000000
0.000000 0.479864 0.000000
0.000006 0.495372 0.000000
0.000046 0.512489 0.000000
0.010111 0.530142 0.000000
0.063012 0.546532 0.000000
0.146370 0.561654 0.000000
0.219322 0.576018 0.000000
0.281417 0.589503 0.000000
0.338193 0.602613 0.000000
0.389253 0.615293 0.000000
0.439411 0.627020 0.000000
0.488550 0.637920 0.000000
0.537504 0.648396 0.000000
